**kern	**dynam	**kern	**dynam	**kern	**dynam	**kern	**dynam	**mxhm
*part4	*part4	*part3	*part3	*part2	*part2	*part1	*part1	*part1
*staff4	*	*staff3	*	*staff2	*	*staff1	*	*
*I"Cello	*	*I"Viola	*	*I"2nd Violin	*	*I"1st Violin	*	*
*clefF4	*	*clefC3	*	*clefG2	*	*clefG2	*	*
*k[b-]	*	*k[b-]	*	*k[b-]	*	*k[b-]	*	*
*F:	*	*F:	*	*F:	*	*F:	*	*
*M2/4	*	*M2/4	*	*M2/4	*	*M2/4	*	*
=1	=1	=1	=1	=1	=1	=1	=1	=1
!	!	!	!	!	!	!LO:TX:b:Bi:t=sempre 	!	!
!LO:TX:b:Bi:t=sempre 	!	!	!	!	!	!LO:TX:a:B:t=Allegro	!	!
(4D	.	2r	.	2r	.	[2ccT	.	V
8CL	.	.	.	.	.	.	.	.
16DL	.	.	.	.	.	.	.	.
16EJJ)	.	.	.	.	.	.	.	.
=2	=2	=2	=2	=2	=2	=2	=2	=2
8F'L	.	2r	.	2r	.	2cc_	.	V43
8F'J	.	.	.	.	.	.	.	.
8G'L	.	.	.	.	.	.	.	.
8G'J	.	.	.	.	.	.	.	.
=3	=3	=3	=3	=3	=3	=3	=3	=3
4A	.	2r	.	2r	.	2cc_	.	V
8cL	.	.	.	.	.	.	.	.
16c'L	.	.	.	.	.	.	.	.
16B-'JJ	.	.	.	.	.	.	.	.
=4	=4	=4	=4	=4	=4	=4	=4	=4
(4A	<	2r	.	2r	.	2cc]	.	V
8.cL	[ >	.	.	.	.	.	.	.
16B-Jk)	]]	.	.	.	.	.	.	.
=5	=5	=5	=5	=5	=5	=5	=5	=5
(4A	p	2r	.	2r	.	4ccT	.	I6
8GL	.	.	.	.	.	4cc#Xt	.	V2/vi
16AL	.	.	.	.	.	.	.	.
16EJJ)	.	.	.	.	.	.	.	.
=6	=6	=6	=6	=6	=6	=6	=6	=6
8F'L	.	2r	.	2r	.	4ddT	.	vi6
8D'J	.	.	.	.	.	.	.	.
8C#X'L	.	.	.	.	.	4eet	.	V6/vi
8AA'J	.	.	.	.	.	.	.	.
.	.	.	.	.	.	16qqcc#X/LL	.	.
.	.	.	.	.	.	16qqdd/JJ	.	.
=7	=7	=7	=7	=7	=7	=7	=7	=7
8D'L	.	2r	.	2r	.	8.ffTL	.	vi
8F'J	.	.	.	.	.	.	.	.
.	.	.	.	.	.	32eeLL	.	.
.	.	.	.	.	.	32ddJJJ	.	.
8E'L	.	.	.	.	.	8.cc#XtL	.	V64/vi
8A'J	.	.	.	.	.	.	.	.
.	.	.	.	.	.	32bnLL	.	.
.	.	.	.	.	.	32cc#JJJ	.	.
=8	=8	=8	=8	=8	=8	=8	=8	=8
(4D	.	16r	.	4r	.	4dd	.	vi
.	.	16f'LL	p	.	.	.	.	.
.	.	16e'	.	.	.	.	.	.
.	.	16a'JJ	.	.	.	.	.	.
[4CnT)	.	8f'	.	16r	.	4r	.	I64
.	.	.	.	16a'LL	p	.	.	.
.	.	8r	.	16f'	.	.	.	.
.	.	.	.	16b-'JJ	.	.	.	.
=9	=9	=9	=9	=9	=9	=9	=9	=9
2C_	.	8gL	.	8b-L	.	(4dd	.	V[V43(2)
.	.	8gJ	.	8b-J	.	.	.	.
.	.	8r	.	8r	.	8ccL	.	V43
.	.	8g	.	8b-	.	16ddL	.	.
.	.	.	.	.	.	16eeJJ)	.	.
=10	=10	=10	=10	=10	=10	=10	=10	=10
2C_	.	8r	.	8r	.	8ff'L	.	I
.	.	8f	.	8a	.	8ff'J	.	.
.	.	8r	.	8r	.	8gg'L	.	V
.	.	8c	.	8g	.	8gg'J	.	.
=11	=11	=11	=11	=11	=11	=11	=11	=11
2C_	.	8r	.	8r	.	(4aa	.	I6
.	.	8A	.	8f	.	.	.	.
.	.	8r	.	8r	.	8ccc'L)	.	V6
.	.	8e	.	8g	.	16ccc'L	.	.
.	.	.	.	.	.	16bb-'JJ	.	.
=12	=12	=12	=12	=12	=12	=12	=12	=12
2C]	.	8r	.	8r	.	(4aa	<	I
.	.	8f	.	8a	.	.	.	.
.	.	8r	.	8r	.	8.cccL	[ >	V6
.	.	8e	.	8g	.	.	.	.
.	.	.	.	.	.	16bb-Jk)	]]	.
=13	=13	=13	=13	=13	=13	=13	=13	=13
!	!	!	!	!	!	!LO:TX:b:i:t=sempre	!	!
4CT	.	8r	.	8r	.	(4aa	.	I]
.	.	8f	.	8a	.	.	.	.
4C#Xt	.	8r	.	8r	.	8ggL	.	V65/vi
.	.	8e	.	8a	.	16aaL	p	.
.	.	.	.	.	.	16eeJJ)	.	.
=14	=14	=14	=14	=14	=14	=14	=14	=14
4DT	.	8r	.	8r	.	8ff'L	.	vi
.	.	8f	.	8a	.	8dd'J	.	.
16qqC#X/LL	.	.	.	.	.	.	.	.
16qqD/JJ	.	.	.	.	.	.	.	.
4Et	.	8r	.	8r	.	8cc#X'L	.	V43/vi
.	.	8g	.	8a	.	8a'J	.	.
16qqD/LL	.	.	.	.	.	.	.	.
16qqE/JJ	.	.	.	.	.	.	.	.
=15	=15	=15	=15	=15	=15	=15	=15	=15
8.FTL	.	8r	.	8r	.	8dd'L	.	vi6
.	.	8f	.	8a	.	8ff'J	.	.
32ELL	.	.	.	.	.	.	.	.
32DJJJ	.	.	.	.	.	.	.	.
8.C#XtL	.	8r	.	8r	.	8ee'L	.	V65/vi
.	.	8g	.	8a	.	8aa'J	.	.
32BBnLL	.	.	.	.	.	.	.	.
32AAJJJ	.	.	.	.	.	.	.	.
=16	=16	=16	=16	=16	=16	=16	=16	=16
!LO:TX:b:i:t=cresc.	!	!	!	!	!	!	!	!
!LO:TX:a:i:t=cresc.	!	!	!	!LO:TX:b:i:t=cresc.	!	!	!	!
(2BB-X	.	(4D	.	(4ff	.	4dd	.	IV
.	.	8CL	.	8eeL	.	4r	.	V2
.	.	16DL	.	16ffL	.	.	.	.
.	.	16EJJ)	.	16ggJJ)	.	.	.	.
=17	=17	=17	=17	=17	=17	=17	=17	=17
4AA	.	8F'L	.	8aa'L	.	4r	.	I6
.	.	8F'J	.	8aa'J	.	.	.	.
!	!	!	!	!	!	!LO:TX:a:i:t=cresc.	!	!
4GG)	.	8G'L	.	8bb-'L	.	(8cccL	.	V43
.	.	8G'J	.	8bb-'J	.	16dddL	.	.
.	.	.	.	.	.	16eeeJJ)	.	.
=18	=18	=18	=18	=18	=18	=18	=18	=18
(16FFLL	f	(4A	f	8aa	f	8fff'L	f	I\\
16AA)	.	.	.	.	.	.	.	.
(16AA	.	.	.	4cc	.	8fff'J	.	.
16CJJ)	.	.	.	.	.	.	.	.
(16EELL	.	8c'L)	.	.	.	8ggg'L	.	V6
16GG)	.	.	.	.	.	.	.	.
(16GG	.	16c'L	.	[8cc	.	8ggg'J	.	.
16CJJ)	.	16B-'JJ	.	.	.	.	.	.
=19	=19	=19	=19	=19	=19	=19	=19	=19
(16FFLL	.	(4A	.	8ccL]	.	(4aaa	.	I
16AA)	.	.	.	.	.	.	.	.
(16AA	.	.	.	(8ccJ	.	.	.	.
16CJJ)	.	.	.	.	.	.	.	.
(16CCLL	.	8E'L)	.	8ccc'L)	.	8cccc'L)	.	V
16EE)	.	.	.	.	.	.	.	.
16GG'	.	16E'L	.	16ccc'L	.	16cccc'L	.	.
16C'JJ	.	16G'JJ	.	16bb-'JJ	.	16bbb-'JJ	.	.
=20	=20	=20	=20	=20	=20	=20	=20	=20
(16FFLL	.	4F	.	8aa	.	4aaa	.	I
16AA)	.	.	.	.	.	.	.	.
(16AA	.	.	.	4cc	.	.	.	.
16CJJ)	.	.	.	.	.	.	.	.
(16EELL	.	(8.cL	sf	.	.	4r	.	V65
16GG)	.	.	.	.	.	.	.	.
(16GG	.	.	.	[8cc	.	.	.	.
16CJJ)	.	16B-Jk)	.	.	.	.	.	.
=21	=21	=21	=21	=21	=21	=21	=21	=21
16FFLL	.	4A	.	8ccL]	.	4r	.	I
16AA	.	.	.	.	.	.	.	.
16AA	.	.	.	8ccJ	.	.	.	.
16CJJ	.	.	.	.	.	.	.	.
!	!LO:DY:a	!	!	!	!	!	!	!
(16CCLL	sf sf	(8.EL	.	(8.cccL	sf	(8.ccccL	sf	V
16EE)	.	.	.	.	.	.	.	.
16GG'	.	.	.	.	.	.	.	.
16C'JJ	.	16GJk)	.	16bb-Jk)	.	16bbb-Jk)	.	.
=22	=22	=22	=22	=22	=22	=22	=22	=22
8FF	ff	16GLL	ff	(16bb-LL	ff	(16bbb-LL	ff	I
.	.	16FJJ	.	16aa)	.	16aaa)	.	.
4F	.	4A	.	16fff'	.	16aaa'	.	.
.	.	.	.	16eee'JJ	.	16ggg'JJ	.	.
.	.	.	.	(16eeeLL	.	(16gggLL	.	.
.	.	.	.	16ddd)	.	16fff)	.	.
[8A	.	[8c	.	16ddd'	.	16fff'	.	I6
.	.	.	.	16ccc'JJ	.	16eee'JJ	.	.
=23	=23	=23	=23	=23	=23	=23	=23	=23
(8AL]	.	(8cL]	.	(16cccLL	.	(16eeeLL	.	.
.	.	.	.	16bb-)	.	16ddd)	.	.
8B-J)	.	8dJ)	.	16bb-'	.	16ddd'	.	IV
.	.	.	.	16aa'JJ	.	16ccc#X'JJ	.	.
4r	.	4r	.	(16aaLL	.	(16ccc#LL	.	.
.	.	.	.	16bb-)	.	16ddd)	.	.
.	.	.	.	16bb-'	.	16ddd'	.	.
.	.	.	.	16aa'JJ	.	16cccn'JJ	.	.
=24	=24	=24	=24	=24	=24	=24	=24	=24
8r	.	8r	.	(16aaLL	.	(16cccLL	.	.
.	.	.	.	16gg)	.	16bb-)	.	.
4G	.	4B-	.	16gg'	.	16bb-'	.	ii
.	.	.	.	16ff'JJ	.	16aa'JJ	.	.
.	.	.	.	(16ffLL	.	(16aaLL	.	.
.	.	.	.	16ee)	.	16gg)	.	.
[8B-	.	[8d	.	16ee'	.	16gg'	.	IV
.	.	.	.	16dd'JJ	.	16ff'JJ	.	.
=25	=25	=25	=25	=25	=25	=25	=25	=25
(8B-L]	.	(8dL]	.	(16ddLL	.	(16ffLL	.	.
.	.	.	.	16cc)	.	16eeJJ)	.	.
8cJ)	.	16e'L)	p	16ee'	p	8r	.	V
.	.	16f'JJ	.	16ff'JJ	.	.	.	.
4r	.	(16f#XLL	.	(16ff#XLL	.	4r	.	.
.	.	16g)	.	16gg)	.	.	.	.
.	.	16g'	.	16gg'	.	.	.	.
.	.	16fn'JJ	.	16ffn'JJ	.	.	.	.
=26	=26	=26	=26	=26	=26	=26	=26	=26
2r	.	(16fLL	.	(16ffLL	.	4r	.	.
.	.	16e)	.	16ee)	.	.	.	.
.	.	16e'	.	16ee'	.	.	.	.
.	.	16d'JJ	.	16dd'JJ	.	.	.	.
.	.	(16dLL	.	(16ddLL	.	[4ccc	p	.
.	.	16c)	.	16cc)	.	.	.	.
.	.	16c'	.	16cc'	.	.	.	.
.	.	16Bn'JJ	.	16bn'JJ	.	.	.	.
=27	=27	=27	=27	=27	=27	=27	=27	=27
8r	.	(16cLL	<	(16ccLL	<	(4.ccc]	<	V65
.	.	16B-)	.	16b-)	.	.	.	.
(8DL	p	(16B-	.	(16b-	.	.	.	.
.	.	16fJJ	.	16ffJJ	.	.	.	.
8E	<	16gLL	.	16ggLL	.	.	.	.
.	.	16B-	.	16b-	.	.	.	.
8FJ)	[ > ]]	16A	[ >	16a	[ >	16aaLL	[ >	I
.	.	16fJJ)	]]	16ffJJ)	]]	16cccJJ)	]]	.
=28	=28	=28	=28	=28	=28	=28	=28	=28
8r	.	((16cLL	<	((16ccLL	<	((4.ccc	<	V65
.	.	16B-))	.	16b-))	.	.	.	.
(8DL	p	((16B-	.	((16b-	.	.	.	.
.	.	16fJJ	.	16ffJJ	.	.	.	.
8E	<	16gLL	.	16ggLL	.	.	.	.
.	.	16B-	.	16b-	.	.	.	.
8FJ)	[ > ]]	16A	[ >	16a	[ >	16aaLL	[ >	I
.	.	16fJJ))	]]	16ffJJ))	]]	16cccJJ))	]]	.
=29	=29	=29	=29	=29	=29	=29	=29	=29
8r	.	(16GLL	.	(16gLL	.	4r	.	ii6
.	.	16dJJ)	.	16ddJJ)	.	.	.	.
8BB-	.	16r	.	16r	.	.	.	.
.	.	16d	.	16dd	.	.	.	.
8r	.	(16ELL	.	(16eLL	.	(16fff#XLL	.	V
.	.	16cJJ)	.	16ccJJ)	.	16ggg)	.	.
8C	.	16r	.	16r	.	16fffn'	.	.
.	.	16c	.	16cc	.	16eee'JJ	.	.
=30	=30	=30	=30	=30	=30	=30	=30	=30
8r	.	8r	.	8r	.	(16dddLL	<	.
.	.	.	.	.	.	16ccc	.	.
(8d-XL	<	(8fL	<	(8b-L	<	16bb-	.	IV6
.	.	.	.	.	.	16fffJJ	.	.
8c	[ >	8b-	[ >	8ee	[ >	16gggLL	.	V7
.	.	.	.	.	.	16bb-	[ >	.
8fJ)	]	8aJ)	]	8ffJ)	]	16aa	.	I\\
.	.	.	.	.	.	16fffJJ)	]]	.
=31	=31	=31	=31	=31	=31	=31	=31	=31
8r	.	8r	.	8r	.	(16cccLL	<	.
.	.	.	.	.	.	16bb-)	.	.
(8DD-XL	<	(8FL	<	(8b-	<	(16bb-	.	iv6
.	.	.	.	.	.	16fffJJ	.	.
8CC	[ >	8E	[ >	16ggLL	.	16gggLL	.	V7
.	.	.	.	16b-	.	16bb-	[ >	.
8FFJ)	]	8AJ)	]	16a	[ >	16aa	.	I\\
.	.	.	.	16ffJJ)	]]	16fffJJ)	]]	.
=32	=32	=32	=32	=32	=32	=32	=32	=32
!	!	!	!	!	!	!LO:TX:b:i:t=cresc.	!	!
8r	.	8r	.	8r	.	(16ggLL	.	ii6
.	.	.	.	.	.	16dddJJ)	.	.
!LO:TX:b:i:t=cresc.	!	!LO:TX:b:i:t=cresc.	!	!LO:TX:b:i:t=cresc.	!	!	!	!
8B-	.	8g	.	8dd	.	16r	.	.
.	.	.	.	.	.	16ddd	.	.
8r	.	8r	.	8r	.	(16eeLL	.	V
.	.	.	.	.	.	16cccJJ)	.	.
8c	.	8e	.	8g	.	16r	.	.
.	.	.	.	.	.	16ccc	.	.
=33	=33	=33	=33	=33	=33	=33	=33	=33
8r	.	8r	.	8r	.	(16ffLL	.	I6
.	.	.	.	.	.	16aaJJ)	.	.
8A	.	8f	.	8cc	.	16r	.	.
.	.	.	.	.	.	16aa	.	.
8r	.	8r	.	8r	.	(16aLL	.	vi
.	.	.	.	.	.	16ffJJ)	.	.
8D	.	8A	.	8f	.	16r	.	.
.	.	.	.	.	.	16ff	.	.
=34	=34	=34	=34	=34	=34	=34	=34	=34
8r	.	8r	.	8r	.	(16gLL	.	ii6
.	.	.	.	.	.	16ddJJ)	.	.
8BB-	.	8B-	.	8d	.	16r	.	.
.	.	.	.	.	.	16dd	.	.
8r	.	8r	.	8r	.	(16eLL	.	V
.	.	.	.	.	.	16ccJJ)	.	.
8C	.	8G	.	8e	.	16r	.	.
.	.	.	.	.	.	16cc	.	.
=35	=35	=35	=35	=35	=35	=35	=35	=35
(4FF	ff	8AL	ff	8fL	ff	16cc'LL	ff	I\\
.	.	.	.	.	.	(16c	.	.
.	.	8AJ	.	8cJ	.	16A)	.	.
.	.	.	.	.	.	(16fJJ	.	.
8CL	.	8B-L	.	8cL	.	16gLL)	.	V7
.	.	.	.	.	.	(16e	.	.
16DL	.	8B-J	.	8cJ	.	16c)	.	.
16EJJ)	.	.	.	.	.	(16gJJ	.	.
=36	=36	=36	=36	=36	=36	=36	=36	=36
8F'L	.	8AL	.	8cL	.	16aLL)	.	I
.	.	.	.	.	.	(16f	.	.
8F'J	.	8AJ	.	8cJ	.	16c)	.	.
.	.	.	.	.	.	(16aJJ	.	.
8G'L	.	8B-L	.	8eL	.	16b-LL)	.	viio6
.	.	.	.	.	.	(16g	.	.
8G'J	.	8B-J	.	8eJ	.	16e)	.	.
.	.	.	.	.	.	(16b-JJ	.	.
=37	=37	=37	=37	=37	=37	=37	=37	=37
8AL	.	8cL	.	8fL	.	16ccLL)	.	I6
.	.	.	.	.	.	(16a	.	.
8AJ	.	8cJ	.	8fJ	.	16f)	.	.
.	.	.	.	.	.	(16ccJJ	.	.
8GL	.	8cL	.	8b-L	.	16eeLL)	.	viio6
.	.	.	.	.	.	(16b-	.	.
8GJ	.	8cJ	.	8b-J	.	16g)	.	.
.	.	.	.	.	.	(16eeJJ	.	.
=38	=38	=38	=38	=38	=38	=38	=38	=38
8FL	.	8cL	.	8aL	.	16ffLL)	.	I
.	.	.	.	.	.	(16cc	.	.
8FJ	.	8cJ	.	8aJ	.	16a)	.	.
.	.	.	.	.	.	(16ffJJ	.	.
8CL	.	8eL	.	8ccL	.	16ggLL)	.	V
.	.	.	.	.	.	(16ee	.	.
8CJ	.	8eJ	.	8ccJ	.	16cc)	.	.
.	.	.	.	.	.	(16ggJJ	.	.
=39	=39	=39	=39	=39	=39	=39	=39	=39
4AA	.	8fL	.	8ccL	.	16aaLL)	.	I6
.	.	.	.	.	.	(16ff	.	.
.	.	8fJ	.	8ccJ	.	16cc)	.	.
.	.	.	.	.	.	(16aaJJ	.	.
(8CCL	.	8gL	.	8b-L	.	16cccLL)	.	V7
.	.	.	.	.	.	(16gg	.	.
16DDL	.	8gJ	.	8b-J	.	16ee)	.	.
16EEJJ)	.	.	.	.	.	16ccc'JJ	.	.
=40	=40	=40	=40	=40	=40	=40	=40	=40
8FFL	.	8fL	.	8aL	.	16ccc'LL	.	I
.	.	.	.	.	.	(16aa	.	.
8FFJ	.	8fJ	.	8aJ	.	16ff)	.	.
.	.	.	.	.	.	(16cccJJ	.	.
4r	.	(8EL	.	(8g#XL	.	16eeeLL)	.	V/iii
.	.	.	.	.	.	(16bbn	.	.
.	.	16F#XL	.	16aL	.	16gg#X)	.	.
.	.	16G#XJJ)	.	16bnJJ)	.	16eee'JJ	.	.
=41	=41	=41	=41	=41	=41	=41	=41	=41
4r	.	8AL	.	8ccL	.	16eee'LL	.	iii
.	.	.	.	.	.	(16ccc	.	.
.	.	8AJ	.	8ccJ	.	16aa)	.	.
.	.	.	.	.	.	16eee'JJ	.	.
(8EEL	.	(8g#XL	.	8ddL 8ee	.	16eee'LL	.	V7/iii
.	.	.	.	.	.	(16bbn	.	.
16FF#XL	.	16aL	.	8ddJ 8ee	.	16gg#X)	.	.
16GG#XJJ)	.	16bnJJ)	.	.	.	16eee'JJ	.	.
=42	=42	=42	=42	=42	=42	=42	=42	=42
8AA'L	.	8cc'L	.	8ccL 8ee	.	16eee'LL	.	iii
.	.	.	.	.	.	(16ccc	.	.
8AA'J	.	8cc'J	.	8ccJ 8ee	.	16aa)	.	.
.	.	.	.	.	.	16eee'JJ	.	.
(8DDL	.	(8DL	.	8ddL 8ff	.	16fff'LL	.	vi
.	.	.	.	.	.	(16ddd	.	.
16EEL	.	16EL	.	8ddJ 8ff	.	16aa)	.	.
16FFJJ)	.	16FnJJ)	.	.	.	16fff'JJ	.	.
=43	=43	=43	=43	=43	=43	=43	=43	=43
!	!	!	!	!	!LO:DY:a	!	!	!
(8GGnL	sf	[4G	sf	2r	sf	(16fffLL	.	V7/V
.	.	.	.	.	.	16ddd)	.	.
16BBnL	.	.	.	.	.	(16ddd	.	.
16DJJ	.	.	.	.	.	16fffJJ)	.	.
4G)	.	(8GL]	.	.	.	(16fffLL	sf	.
.	.	.	.	.	.	16ddd)	.	.
.	.	16BnL	.	.	.	(16ddd	.	.
.	.	16dJJ	.	.	.	16fffJJ)	.	.
=44	=44	=44	=44	=44	=44	=44	=44	=44
2r	.	4g)	.	(8gL	sf	(16fffLL	sf	.
.	.	.	.	.	.	16ddd)	>	.
.	.	.	.	8bnJ	>	(16ddd	.	.
.	.	.	.	.	.	16fffJJ)	.	.
.	.	4r	.	8ddL	.	(16fffLL	.	.
.	.	.	.	.	.	16ddd)	.	.
.	.	.	.	8ffJ)	]]	((16gg	.	.
.	.	.	.	.	.	16gggJJ))	]]	.
=45	=45	=45	=45	=45	=45	=45	=45	=45
8r	p	8r	p	(4ee	p	(16gggLL	p	V
.	.	.	.	.	.	16gg)	.	.
8c	.	8e	.	.	.	(16gg	.	.
.	.	.	.	.	.	16gggJJ)	.	.
!	!	!	!	!LO:TX:b:i:t=dol.	!	!	!	!
8r	.	8r	.	4bn	.	(16gggLL	.	V43/V
.	.	.	.	.	.	16gg)	.	.
8d	.	8f	.	.	.	(16gg	.	.
.	.	.	.	.	.	16gggJJ)	.	.
=46	=46	=46	=46	=46	=46	=46	=46	=46
8r	.	8r	.	4cc	.	(16gggLL	.	V6
.	.	.	.	.	.	16gg)	.	.
8e	.	8g	.	.	.	(16gg	.	.
.	.	.	.	.	.	16gggJJ)	.	.
8r	.	8r	.	4cc#X	.	(16gggLL	.	viio7
.	.	.	.	.	.	16gg)	.	.
8e	.	8g	.	.	.	(16gg	.	.
.	.	.	.	.	.	16gggJJ)	.	.
=47	=47	=47	=47	=47	=47	=47	=47	=47
8r	.	8r	.	4dd	.	(16gggLL	.	V2/V
.	.	.	.	.	.	16gg)	.	.
8f	.	8bn	.	.	.	(16gg	.	.
.	.	.	.	.	.	16gggJJ)	.	.
8r	.	8r	.	4ee	.	(16gggLL	.	V65
.	.	.	.	.	.	16gg)	.	.
8e	.	8cc#X	.	.	.	(16gg	.	.
.	.	.	.	.	.	16gggJJ)	.	.
=48	=48	=48	=48	=48	=48	=48	=48	=48
8r	.	8r	.	2ff)	.	(16gggLL	.	V.V43
.	.	.	.	.	.	16gg)	.	.
8d	.	8dd	.	.	.	(16gg	.	.
.	.	.	.	.	.	16gggJJ)	.	.
8r	.	8r	.	.	.	(16gggLL	.	.
.	.	.	.	.	.	16gg)	.	.
8c	.	8dd	.	.	.	(16gg	.	.
.	.	.	.	.	.	16gggJJ)	.	.
=49	=49	=49	=49	=49	=49	=49	=49	=49
8r	<	8r	<	(4ff	<	(16gggLL	<	V65
.	.	.	.	.	.	16gg)	.	.
8Bn	.	8dd	.	.	.	(16gg	.	.
.	.	.	.	.	.	16gggJJ)	.	.
8r	.	8r	.	4gg	.	(16gggLL	.	.
.	.	.	.	.	.	16gg)	.	.
8A	.	8ee	.	.	.	(16gg	.	.
.	.	.	.	.	.	16gggJJ)	.	.
=50	=50	=50	=50	=50	=50	=50	=50	=50
8r	.	8r	.	4aa	.	(16gggLL	.	V7
.	.	.	.	.	.	16gg)	.	.
8G	.	8ff	.	.	.	(16gg	.	.
.	.	.	.	.	.	16gggJJ)	.	.
8r	.	8r	.	4bn	[[	(16gggLL	.	V2
.	.	.	.	.	.	16gg)	.	.
8F	[[	8d	[[	.	.	(16gg	.	.
.	.	.	.	.	.	16gggJJ)	[[	.
=51	=51	=51	=51	=51	=51	=51	=51	=51
8r	>	8r	>	4cc	>	(16gggLL	>	I6
.	.	.	.	.	.	16gg)	.	.
8E	.	8e	.	.	.	(16gg	.	.
.	.	.	.	.	.	16gggJJ)	.	.
8r	.	8r	.	4dd	.	(16gggLL	.	V43
.	.	.	.	.	.	16gg)	.	.
8D	.	8f	.	.	.	(16gg	.	.
.	.	.	.	.	.	16gggJJ)	.	.
=52	=52	=52	=52	=52	=52	=52	=52	=52
8r	.	8r	.	4ee	.	(16gggLL	.	I
.	.	.	.	.	.	16gg)	.	.
8C	.	8g	.	.	.	(16gg	.	.
.	.	.	.	.	.	16gggJJ)	.	.
8r	.	8r	.	4ff)	]]	(16gggLL	.	V7
.	.	.	.	.	.	16gg)	.	.
8GG	]]	8bn	]]	.	.	(16gg	.	.
.	.	.	.	.	.	16gggJJ)	]]	.
=53	=53	=53	=53	=53	=53	=53	=53	=53
(4E-X	.	8cc	.	8ee-X	.	(16gggLL	.	v.i6
.	.	.	.	.	.	16gg)	.	.
.	.	4G	.	4g	.	(16gg	.	.
.	.	.	.	.	.	16gggJJ)	.	.
4BBn	.	.	.	.	.	(16fffLL	.	V65
.	.	.	.	.	.	16gg)	.	.
.	.	[8G	.	[8g	.	(16gg	.	.
.	.	.	.	.	.	16fffJJ)	.	.
=54	=54	=54	=54	=54	=54	=54	=54	=54
4C	.	8G]	.	8g]	.	(4eee-X	.	i
.	.	4G	.	4g	.	.	.	.
4D	.	.	.	.	.	4bbn	.	V64
.	.	[8G	.	[8g	.	.	.	.
=55	=55	=55	=55	=55	=55	=55	=55	=55
4E-X	.	8G]	.	8g]	.	4ccc	.	i6
.	.	4G	.	4g	.	.	.	.
4En	.	.	.	.	.	4ccc#X	.	#viio7/iv
.	.	[8G	.	[8g	.	.	.	.
=56	=56	=56	=56	=56	=56	=56	=56	=56
2F)	.	8G]	.	8g]	.	4ddd	.	V2
.	.	4G	.	4g	.	.	.	.
.	.	.	.	.	.	4eee-X	.	.
.	.	[8G	.	[8g	.	.	.	.
=57	=57	=57	=57	=57	=57	=57	=57	=57
(4F	.	8G]	.	8g]	.	2fff)	<	V7
.	.	4G	<	4g	<	.	.	.
4G	<	.	.	.	.	.	.	.
.	.	[8G	.	[8g	.	.	.	.
=58	=58	=58	=58	=58	=58	=58	=58	=58
4A-X	.	8G]	.	8g]	.	(4fff	.	V7(+2)
.	.	4G	.	4g	.	.	.	.
4BBn	.	.	.	.	.	4ggg	.	V65
.	.	[8G	.	[8g	.	.	.	.
=59	=59	=59	=59	=59	=59	=59	=59	=59
4C	.	8G]	.	8g]	.	4aaa-X	.	i
.	.	4G	.	4g	.	.	.	.
4D	[[	.	.	.	.	4bbn	[[	V64
.	.	[8G	[[	[8g	[[	.	.	.
=60	=60	=60	=60	=60	=60	=60	=60	=60
!LO:TX:b:i:t=dim.	!	!LO:TX:b:i:t=dim.	!	!LO:TX:b:i:t=dim.	!	!LO:TX:b:i:t=dim.	!	!
4E-X	.	8G]	.	8g]	.	4ccc	.	i6
.	.	4G	.	4g	.	.	.	.
4D	.	.	.	.	.	4ddd	.	V64
.	.	[8G	.	[8g	.	.	.	.
=61	=61	=61	=61	=61	=61	=61	=61	=61
4C	.	8G]	.	8g]	.	[2eee-X)	.	V43/VI
.	.	4G	.	4g	.	.	.	.
4BB-	.	.	.	.	.	.	.	.
.	.	8G	.	8dd-X	.	.	.	.
=62	=62	=62	=62	=62	=62	=62	=62	=62
[2AA-X)	pp	[2A-X	pp	2cc	pp	(4eee-]	pp	VI
.	.	.	.	.	.	8bbnL	.	.
.	.	.	.	.	.	16cccL	.	.
.	.	.	.	.	.	16dddJJ)	.	.
=63	=63	=63	=63	=63	=63	=63	=63	=63
2AA-_	.	4A-]	.	[2f#X	.	8eee-X'L	.	.Ger6
.	.	.	.	.	.	8eee-'J	.	.
.	.	(8BnL	.	.	.	8ddd'L	.	.
.	.	16cL	.	.	.	8ddd'J	.	.
.	.	16dJJ)	.	.	.	.	.	.
=64	=64	=64	=64	=64	=64	=64	=64	=64
2AA-]	.	8e-X'L	.	2f#]	.	8ccc'L	.	.
.	.	8e-'J	.	.	.	8ccc'J	.	.
.	.	8d'L	.	.	.	(8bbnL	.	.
.	.	8d'J	.	.	.	16cccL	.	.
.	.	.	.	.	.	16dddJJ)	.	.
=65	=65	=65	=65	=65	=65	=65	=65	=65
16GG'LL	ff	2c	ff	2g	ff	2eee	ff	V.V(64)
16AA'	.	.	.	.	.	.	.	.
16BBn'	.	.	.	.	.	.	.	.
16C'JJ	.	.	.	.	.	.	.	.
16D'LL	.	.	.	.	.	.	.	.
16E'	.	.	.	.	.	.	.	.
16F'	.	.	.	.	.	.	.	.
16G'JJ	.	.	.	.	.	.	.	.
=66	=66	=66	=66	=66	=66	=66	=66	=66
2F	sf	16F'LL	.	2c	sf	2f 2a	sf	IV
.	.	16G'	.	.	.	.	.	.
.	.	16A'	.	.	.	.	.	.
.	.	16Bn'JJ	.	.	.	.	.	.
.	.	16c'LL	.	.	.	.	.	.
.	.	16d'	.	.	.	.	.	.
.	.	16e'	.	.	.	.	.	.
.	.	16f'JJ	.	.	.	.	.	.
=67	=67	=67	=67	=67	=67	=67	=67	=67
2D	.	2F 2G	.	16ff'LL	.	16bn'LL	.	V43
.	.	.	.	16ee'	.	16cc'	.	.
.	.	.	.	16dd'	.	16dd'	.	.
.	.	.	.	16cc'JJ	.	16ee'JJ	.	.
.	.	.	.	16bn'LL	.	16ff'LL	.	.
.	.	.	.	16a'	.	16gg'	.	.
.	.	.	.	16g'	.	16aa'	.	.
.	.	.	.	16f'JJ	.	16bbn'JJ	.	.
=68	=68	=68	=68	=68	=68	=68	=68	=68
16CLL	.	16eLL	.	16eLL	.	16cccLL	.	I
16BBn	.	16d	.	16f	.	16ddd	.	.
16AA	.	16c	.	16g	.	16eee	.	.
16GGJJ	.	16BnJJ	.	16aJJ	.	16fffJJ	.	.
16FFLL	.	16ALL	.	16bnLL	.	16gggLL	.	.
16EE	.	16G	.	16cc	.	16aaa	.	.
16DD	.	16F	.	16dd	.	16bbbn	.	.
16CCJJ	.	16EJJ	.	16eeJJ	.	16ccccJJ	.	.
=69	=69	=69	=69	=69	=69	=69	=69	=69
8FF	.	8c	.	8ff	.	8aaa	.	IV
8r	.	8r	.	8r	.	8r	.	.
8F	.	8c 8a	.	8f 8a	.	8f 8cc 8aa	.	.
8r	.	8r	.	8r	.	8r	.	.
=70	=70	=70	=70	=70	=70	=70	=70	=70
8G	.	8c 8g	.	8e 8cc 8ee	.	8e 8cc 8gg	.	V(64)
8r	.	8r	.	8r	.	8r	.	.
8GG	.	8G	.	8G 8f	.	8G 8d 8bn	.	V7\\
8r	.	8r	.	8r	.	8r	.	.
=71	=71	=71	=71	=71	=71	=71	=71	=71
4r	.	2r	.	2r	.	2r	.	V6
!LO:TX:a:i:t=poco rit.	!	!	!	!	!	!	!	!
(8BBnL	pp	.	.	.	.	.	.	.
16CL	.	.	.	.	.	.	.	.
16DJJ	.	.	.	.	.	.	.	.
=72	=72	=72	=72	=72	=72	=72	=72	=72
!	!	!LO:TX:a:i:t=poco rit.	!	!LO:TX:a:i:t=poco rit.	!	!LO:TX:a:i:t=poco rit.	!	!
8E-XL)	.	4r	.	4r	.	4r	.	#viio2/V
8E-J	.	.	.	.	.	.	.	.
!	!	!	!LO:DY:a	!	!LO:DY:a	!	!	!
8E-L	.	(8AL	pp pp	(8aL	pp	(8ff#XL	.	.
8E-J	.	16GL	.	16bnL	.	16ggL	.	.
.	.	16F#XJJ)	.	16ccJJ)	.	16aaJJ)	.	.
=73	=73	=73	=73	=73	=73	=73	=73	=73
!LO:TX:b:i:t=cresc.	!	!LO:TX:b:i:t=cresc.	!	!LO:TX:b:i:t=cresc.	!	!LO:TX:a:i:t=cresc.	!	!
!LO:TX:a:i:t=a tempo.	!	!LO:TX:a:i:t=a tempo.	!	!LO:TX:a:i:t=a tempo.	!	!LO:TX:a:i:t=a tempo.	!	!
8.EL	.	8.GL	.	16cc'LL	.	16gg'LL	.	I6
.	.	.	.	16ee'J	.	16gg'J	.	.
.	.	.	.	[8eeJ	.	[8ggJ	.	.
16G'Jk	.	16c'Jk	.	.	.	.	.	.
8.GL	.	8.cL	.	16eeLL]	.	16ggLL]	.	.
.	.	.	.	16eeJ	.	16ggJ	.	.
.	.	.	.	[8eeJ	.	[8ggJ	.	.
16c'Jk	.	16e'Jk	.	.	.	.	.	.
=74	=74	=74	=74	=74	=74	=74	=74	=74
8.cL	.	8.eL	.	16eeLL]	.	16ggLL]	.	I
.	.	.	.	16eeJ	.	16ggJ	.	.
.	.	.	.	[8eeJ	.	[8ggJ	.	.
16e'Jk	.	16g'Jk	.	.	.	.	.	.
(16eLL	.	(16gLL	.	16eeLL]	.	16ggLL]	.	.
16c)	.	16e)	.	16ee	.	16gg	.	.
16G'	.	16c'	.	16ee	.	16gg	.	.
16E'JJ	.	16G'JJ	.	16eeJJ	.	16ggJJ	.	.
=75	=75	=75	=75	=75	=75	=75	=75	=75
8.DL	.	8.FL	.	16ffLL	.	16ggLL	.	V43
.	.	.	.	16ffJ	.	16ggJ	.	.
.	.	.	.	[8ffJ	.	[8ggJ	.	.
16F'Jk	.	16Bn'Jk	.	.	.	.	.	.
8.FL	.	8.BL	.	16ffLL]	.	16ggLL]	.	.
.	.	.	.	16ffJ	.	16ggJ	.	.
.	.	.	.	[8ffJ	.	[8ggJ	.	.
16Bn'Jk	.	16d'Jk	.	.	.	.	.	.
=76	=76	=76	=76	=76	=76	=76	=76	=76
8.BnL	.	8.dL	.	16ffLL]	.	16ggLL]	.	V65
.	.	.	.	16ffJ	.	16ggJ	.	.
.	.	.	.	[8ffJ	.	[8ggJ	.	.
16d'Jk	.	16f'Jk	.	.	.	.	.	.
(16dLL	.	(16fLL	.	16ffLL]	.	16ggLL]	.	.
16B)	.	16d)	.	16ff	.	16gg	.	.
16F'	.	16Bn'	.	16ff	.	16gg	.	.
16D'JJ	.	16F'JJ	.	16ffJJ	.	16ggJJ	.	.
=77	=77	=77	=77	=77	=77	=77	=77	=77
16CLL	f	16GLL	f	8.eeL	f	8.ggL	f	I
16cJ	.	16eJ	.	.	.	.	.	.
[8cJ	.	[8eJ	.	.	.	.	.	.
.	.	.	.	16gg'Jk	.	16ccc'Jk	.	.
16cLL]	.	16eLL]	.	8.ggL	.	8.cccL	.	.
16cJ	.	16eJ	.	.	.	.	.	.
[8cJ	.	[8eJ	.	.	.	.	.	.
.	.	.	.	16ccc'Jk	.	16eee'Jk	.	.
=78	=78	=78	=78	=78	=78	=78	=78	=78
16cLL]	.	16eLL]	.	8.cccL	.	8.eeeL	.	.
16cJ	.	16eJ	.	.	.	.	.	.
[8cJ	.	[8eJ	.	.	.	.	.	.
.	.	.	.	16eee'Jk	.	16ggg'Jk	.	.
16cLL]	.	16eLL]	.	(16eeeLL	.	(16gggLL	.	.
16c	.	16e	.	16ccc)	.	16eee)	.	.
16c	.	16e	.	16gg'	.	16ccc'	.	.
16cJJ	.	16eJJ	.	16ee'JJ	.	16gg'JJ	.	.
=79	=79	=79	=79	=79	=79	=79	=79	=79
16dLL	.	16fLL	.	8.ddL	.	8.ffL	.	V7
16GJ	.	16dJ	.	.	.	.	.	.
[8GJ	.	[8dJ	.	.	.	.	.	.
.	.	.	.	16ff'Jk	.	16bbn'Jk	.	.
16GLL]	.	16dLL]	.	8.ffL	.	8.bbL	.	.
16GJ	.	16dJ	.	.	.	.	.	.
[8GJ	.	[8dJ	.	.	.	.	.	.
.	.	.	.	16bbn'Jk	.	16ddd'Jk	.	.
=80	=80	=80	=80	=80	=80	=80	=80	=80
16GLL]	.	16dLL]	.	8.bbnL	.	8.dddL	.	.
16GJ	.	16dJ	.	.	.	.	.	.
[8GJ	.	[8dJ	.	.	.	.	.	.
.	.	.	.	16ddd'Jk	.	16fff'Jk	.	.
16GLL]	.	16dLL]	.	(16dddLL	.	(16fffLL	.	.
16G	.	16d	.	16bb)	.	16ddd)	.	.
16G	.	16d	.	16ff'	.	16bbn'	.	.
16BnJJ	.	16dJJ	.	16dd'JJ	.	16ff'JJ	.	.
=81	=81	=81	=81	=81	=81	=81	=81	=81
16cLL	p	16eLL	p	8.ccL	p	8.eeL	p	I
16cJ	.	16eJ	.	.	.	.	.	.
[8GJ	.	[8fJ	.	.	.	.	.	.
.	.	.	.	16bn'Jk	.	16dd'Jk	.	.
16GLL]	.	16fLL]	.	8.ccL	.	8.eeL	.	I64
16cJ	.	16eJ	.	.	.	.	.	.
[8AJ	.	[8gJ	.	.	.	.	.	.
.	.	.	.	16cc#X'Jk	.	16ee'Jk	.	V7/ii
=82	=82	=82	=82	=82	=82	=82	=82	=82
16ALL]	.	16gLL]	.	8.ddL	.	8.ffL	.	ii64
16dJ	.	16fJ	.	.	.	.	.	.
[8AJ	.	[8gJ	.	.	.	.	.	.
.	.	.	.	16cc#X'Jk	.	16ee'Jk	.	.
16ALL]	.	16gLL]	.	8.ddL	.	8.ffL	.	.
16dJ	.	16fJ	.	.	.	.	.	.
8GJ	.	8fJ	.	.	.	.	.	.
.	.	.	.	16bn'Jk	.	16dd'Jk	.	V7
=83	=83	=83	=83	=83	=83	=83	=83	=83
!LO:TX:b:i:t=cresc.	!	!LO:TX:b:i:t=cresc.	!	!LO:TX:b:i:t=cresc.	!	!LO:TX:b:i:t=cresc.	!	!
16cLL	.	16eLL	.	8.ccL	.	8.eeL	.	I\\
16CJJ	.	16EJJ	.	.	.	.	.	.
[8GG	.	[8F	.	.	.	.	.	.
.	.	.	.	16dd'Jk	.	16bbn'Jk	.	V7
16GGLL]	.	16FLL]	.	8.eeL	.	8.cccL	.	I
16CJ	.	16EJ	.	.	.	.	.	.
[8AAJ	.	[8GJ	.	.	.	.	.	.
.	.	.	.	16ee'Jk	.	16ccc#X'Jk	.	V7/ii
=84	=84	=84	=84	=84	=84	=84	=84	=84
16AALL]	.	16GLL]	.	8.ffL	.	8.dddL	.	ii64
16DJ	.	16FJ	.	.	.	.	.	.
[8AAJ	.	[8GJ	.	.	.	.	.	.
.	.	.	.	16eeJk	.	16ccc#XJk	.	V7/ii
16AALL]	.	16GLL]	.	8.ffL	.	8.dddL	.	ii64
16DJ	.	16FJ	.	.	.	.	.	.
[8GGJ	.	[8fJ	.	.	.	.	.	.
.	.	.	.	16ddJk	.	16bbnJk	.	V7
=85	=85	=85	=85	=85	=85	=85	=85	=85
16GGLL]	.	16fLL]	.	8.eeL	.	8.eeeL	.	I64
16CJ	.	16eJ	.	.	.	.	.	.
[8BBnJ	.	[8dJ	.	.	.	.	.	.
.	.	.	.	16ggJk	.	16gggJk	.	.
16BBLL]	.	16dLL]	.	8.ccL	.	8.cccnL	.	vi
16AAJ	.	16cJ	.	.	.	.	.	.
[8GGJ	.	[8BnJ	.	.	.	.	.	.
.	.	.	.	16eeJk	.	16eeeJk	.	.
=86	=86	=86	=86	=86	=86	=86	=86	=86
16GGLL]	.	16BLL]	.	8.aL	.	8.aaL	.	ii6
16FFJ	.	16AJ	.	.	.	.	.	.
[8DDJ	.	[8FJ	.	.	.	.	.	.
.	.	.	.	16ddJk	.	16dddJk	.	.
16DDLL]	.	16FLL]	.	8.ccL	.	8.cccL	.	V(4)
16GGJ	.	16GJ	.	.	.	.	.	.
[8GGJ	.	[8GJ	.	.	.	.	.	.
.	.	.	.	16bnJk	.	16bbnJk	.	V
=87	=87	=87	=87	=87	=87	=87	=87	=87
16GGKL]	f	16GKL]	f	16ee'KL	f	16eee'KL	f	I64
8C	.	8e	.	8.ggJ	sf	8.gggJ	sf	.
[16BBnJk	.	[16dJk	.	.	.	.	.	.
16BBKL]	.	16dKL]	.	16cc'KL	.	16ccc'KL	.	vi
8AA	.	8c	.	8.eeJ	.	8.eeeJ	.	.
[16GGJk	.	[16BnJk	.	.	.	.	.	.
=88	=88	=88	=88	=88	=88	=88	=88	=88
16GGKL]	.	16BKL]	.	16a'KL	.	16aa'KL	.	ii6
8FF	.	8A	.	8.ddJ	.	8.dddJ	.	.
[16DDJk	.	[16FJk	.	.	.	.	.	.
16DDKL]	.	16FKL]	.	16cc'KL	.	16ccc'KL	.	V(4)
8GG	.	8G	.	8.bnJ	.	8.bbnJ	.	V
16GGJk	.	16GJk	.	.	.	.	.	.
=89	=89	=89	=89	=89	=89	=89	=89	=89
!	!LO:DY:a	!	!LO:DY:a	!	!LO:DY:a	!	!	!
16CC	ff ff	16C 16c	ff	8cc	ff	16ccc'LL	.	I\\
(16CCLL	.	(16CLL	.	.	.	(16c	.	.
16DD)	.	16D)	.	8r	.	16d)	.	.
(16EEJJ	.	(16EJJ	.	.	.	(16eJJ	.	.
16FFLL)	.	16FLL)	.	16r	.	16fLL)	.	.
(16GG	.	(16G	.	(16GLL	.	(16g	.	.
16AA)	.	16A)	.	16A)	.	16a)	.	.
(16BBnJJ	.	(16BnJJ	.	(16BnJJ	.	(16bnJJ	.	.
=90	=90	=90	=90	=90	=90	=90	=90	=90
16CLL)	.	16cLL)	.	16cLL)	.	16ccLL)	.	I
(16D	.	(16d	.	(16d	.	(16dd	.	.
16E)	.	16e)	.	16e)	.	16ee)	.	.
(16FJJ	.	(16fJJ	.	(16fJJ	.	(16ffJJ	.	.
16GLL)	.	16gLL)	.	16gLL)	.	16ggLL)	.	.
(16A	.	(16A	.	(16a	.	(16aa	.	.
16Bn)	.	16Bn)	.	16bn)	.	16bbn)	.	.
(16cJJ	.	(16cJJ	.	(16ccJJ	.	(16cccJJ	.	.
=91	=91	=91	=91	=91	=91	=91	=91	=91
16dLL)	.	16dLL)	.	16ddLL)	.	16dddLL)	.	ii6
(16E	.	(16e	.	(16ee	.	(16eee	.	I6
16F)	.	16f)	.	16ff)	.	16fff)	.	IV
(16EJJ	.	(16gJJ	.	(16ggJJ	.	(16gggJJ	.	I6
8F'L)	.	8a'L)	.	8aa'L)	.	8aaa'L)	.	IV
8G'J	.	8G'J 8f	.	8dd'J 8bbn	.	8bbbn'J	.	V7
=92	=92	=92	=92	=92	=92	=92	=92	=92
16CLL	.	16GLL 16e	.	16eeLL 16ccc	.	16cccc'LL	.	I\\
(16C	.	(16E	.	(16eee	.	(16ggg	.	.
16BBn)	.	16D)	.	16fff)	.	16aaa)	.	.
(16DJJ	.	(16FJJ	.	(16dddJJ	.	(16fffJJ	.	.
16CLL)	.	16ELL)	.	16eeeLL)	.	16gggLL)	.	.
(16C	.	(16E	.	(16ccc	.	(16eee	.	.
16BB)	.	16D)	.	16ddd)	.	16fff)	.	.
(16DJJ	.	(16FJJ	.	(16bbnJJ	.	(16dddJJ	.	.
=93	=93	=93	=93	=93	=93	=93	=93	=93
16CLL)	.	16ELL)	.	16cccLL)	.	16eeeLL)	.	.
(16E	.	(16G	.	(16ee	.	(16ccc	.	.
16D)	.	16F)	.	16ff)	.	16ddd)	.	.
(16FJJ	.	(16A-XJJ	.	(16ddJJ	.	(16bbnJJ	.	.
!LO:TX:b:i:t=dim.	!	!LO:TX:b:i:t=dim.	!	!LO:TX:b:i:t=dim.	!	!LO:TX:b:i:t=dim.	!	!
16ELL)	.	16GLL)	.	16eeLL)	.	16cccLL)	.	.
(16E	.	(16c	.	(16ee	.	(16gg	.	.
16D)	.	16Bn)	.	16ff)	.	16aa)	.	.
(16FJJ	.	(16dJJ	.	(16ddJJ	.	(16ffJJ	.	.
=94	=94	=94	=94	=94	=94	=94	=94	=94
16ELL)	.	16cLL)	.	16eeLL)	.	16ggLL)	.	.
(16G	.	(16e	.	(16cc	.	(16ee	.	.
16F)	.	16d)	.	16dd)	.	16ff)	.	.
(16A-XJJ	.	(16fJJ	.	(16bnJJ	.	(16ddJJ	.	.
16GLL)	.	16eLL)	.	16ccLL)	.	16eeLL)	.	.
(16c	.	(16e	.	(16ee	.	(16cc	.	.
16Bn)	.	16d)	.	16ff)	.	16dd)	.	.
(16dJJ	.	(16fJJ	.	(16ddJJ	.	(16bnJJ	.	.
=95	=95	=95	=95	=95	=95	=95	=95	=95
16cLL)	.	16eLL)	.	16eeLL)	.	16ccLL)	.	.
(16e	.	(16g	.	(16dd	.	(16bn	.	.
16d)	.	16f)	.	16ff)	.	16dd)	.	.
(16fJJ	.	(16a-XJJ	.	(16ddJJ	.	(16bJJ	.	.
16eLL)	.	16gLL)	.	16eeLL)	.	16ccLL)	.	.
(16e	.	(16g	.	(16dd	.	(16b	.	.
16d)	.	16f)	.	16ff)	.	16dd)	.	.
(16fJJ	.	(16a-JJ	.	(16ddJJ	.	(16bJJ	.	.
=96	=96	=96	=96	=96	=96	=96	=96	=96
16eLL)	p	(16gLL)	p	(16eeLL)	p	(16ccLL)	p	.
!LO:TX:b:i:t=dim.	!	!LO:TX:b:i:t=dim.	!	!LO:TX:b:i:t=dim.	!	!LO:TX:b:i:t=dim.	!	!
16c	.	16d	.	16f	.	16bn	.	.
16c	.	16f	.	16a-X	.	16dd	.	.
16cJJ	.	16dJJ	.	16fJJ	.	16bJJ	.	.
16cLL	.	16eLL	.	16gLL	.	16ccLL	.	.
16c	.	16d	.	16f	.	16b	.	.
16c	.	16f	.	16a-	.	16dd	.	.
16cJJ	.	16dJJ	.	16fJJ	.	16bJJ	.	.
=97	=97	=97	=97	=97	=97	=97	=97	=97
16cLL	.	16eLL	.	16gLL	.	16ccLL	.	.
16c	.	16d	.	16f	.	16bn	.	.
16c	.	16f	.	16a-X	.	16dd	.	.
16cJJ	.	16dJJ	.	16fJJ	.	16bJJ	.	.
16cLL	.	16eLL	.	16gLL	.	16ccLL	.	.
16c	.	16d	.	16f	.	16b	.	.
16c	.	16f	.	16a-	.	16dd	.	.
16cJJ	.	16dJJ)	.	16fJJ)	.	16bJJ)	.	.
=98	=98	=98	=98	=98	=98	=98	=98	=98
8c	pp	8e	pp	8g	pp	[2ccT	pp	I\\
8r	.	8r	.	8r	.	.	.	.
4r	.	4r	.	4r	.	.	.	.
=99	=99	=99	=99	=99	=99	=99	=99	=99
2r	.	2r	.	2r	.	2cc_	.	.
=100:|!	=100:|!	=100:|!	=100:|!	=100:|!	=100:|!	=100:|!	=100:|!	=100:|!
(4FF#X	p	(4F#X	p	2r	.	2cc_	.	ii.V65
8EEL	.	8EL	.	.	.	.	.	.
16FF#L	.	16F#L	.	.	.	.	.	.
16GGJJ)	.	16GJJ)	.	.	.	.	.	.
=101	=101	=101	=101	=101	=101	=101	=101	=101
8AA'L	.	8A'L	.	4r	p	2cc_	.	IV64
8AA'J	.	8A'J	.	.	.	.	.	.
8GG'L	.	8G'L	.	(8eL	.	.	.	.
8GG'J	.	8G'J	.	16f#XL	.	.	.	.
.	.	.	.	16gJJ)	.	.	.	.
=102	=102	=102	=102	=102	=102	=102	=102	=102
!LO:TX:b:i:t=cresc.	!	!LO:TX:b:i:t=cresc.	!	!LO:TX:b:i:t=cresc.	!	!LO:TX:b:i:t=cresc.	!	!
8FF#XL	.	8F#XL	.	8a'L	.	2cc_	.	IV64
8FF#J	.	8F#J	.	8a'J	.	.	.	.
(8GGL	.	(8GL	.	8g'L	.	.	.	.
16AAL	.	16AL	.	8g'J	.	.	.	.
16BB-JJ)	.	16B-JJ)	.	.	.	.	.	.
=103	=103	=103	=103	=103	=103	=103	=103	=103
8CL	.	8cL	.	8f#X'L	.	2cc_	.	i6
8CJ	.	8cJ	.	8f#'J	.	.	.	.
8BB-L	.	8B-L	.	(8gL	.	.	.	.
8BB-J	.	8B-J	.	16aL	.	.	.	.
.	.	.	.	16b-JJ)	.	.	.	.
=104	=104	=104	=104	=104	=104	=104	=104	=104
8AAL	.	8AL	.	8ccL	.	2cc]	.	V43
8AAJ	.	8AJ	.	8ccJ	.	.	.	.
(8BB-L	.	(8B-L	.	(8b-L	.	.	.	.
16CL	.	16cL	.	16aL	.	.	.	.
16DJJ)	.	16dJJ)	.	16gJJ)	.	.	.	.
=105	=105	=105	=105	=105	=105	=105	=105	=105
!	!	!	!LO:DY:a	!	!LO:DY:a	!	!	!
8E-X'L	f >	8e-X'L	f f >	(8f#XL	f >	4ccT	>	V7
8D'J	.	8d'J	.	16gL	.	.	.	.
.	.	.	.	16aJJ)	.	.	.	.
.	.	.	.	.	.	16qqbn/LL	.	V2
.	.	.	.	.	.	16qqcc/JJ	.	.
(8CL	.	(8cL	.	(8dL	.	(8ddTL	.	.
16BB-L	.	16B-L	.	16eL	.	16eeL	.	.
16AAJJ)	]]	16AJJ)	]]	16f#JJ)	]]	16ff#XJJ)	]]	#viio6
=106	=106	=106	=106	=106	=106	=106	=106	=106
(16GGLL	p	8G	p	4g	p	(4gg	p	i
16BB-)	.	.	.	.	.	.	.	.
(16BB-	.	4D	.	.	.	.	.	.
16DJJ)	.	.	.	.	.	.	.	.
(16FF#XLL	.	.	.	4r	.	8ddd'L)	.	V6
16AA)	.	.	.	.	.	.	.	.
(16AA	.	[8D	.	.	.	16ddd'L	.	.
16DJJ)	.	.	.	.	.	16ccc'JJ	.	.
=107	=107	=107	=107	=107	=107	=107	=107	=107
(16GGLL	.	8D]	.	4r	.	4bb-	.	i
16BB-)	.	.	.	.	.	.	.	.
(16BB-	.	4d	.	.	.	.	.	.
16DJJ)	.	.	.	.	.	.	.	.
(16FF#XLL	.	.	.	8dd'L	p	4r	.	V6
16AA)	.	.	.	.	.	.	.	.
(16AA	.	[8d	.	16dd'L	.	.	.	.
16DJJ)	.	.	.	16cc'JJ	.	.	.	.
=108	=108	=108	=108	=108	=108	=108	=108	=108
(16GGLL	.	8d]	.	4b-	.	8r	.	i
16BB-)	.	.	.	.	.	.	.	.
(16BB-	.	4D	.	.	.	16r	.	.
16DJJ)	.	.	.	.	.	(16dd	<	.
(16FF#XLL	.	.	.	4r	.	8.dddL	[ >	V6
16AA)	.	.	.	.	.	.	.	.
(16AA	.	[8D	.	.	.	.	.	.
16DJJ)	.	.	.	.	.	16cccJk)	]]	.
=109	=109	=109	=109	=109	=109	=109	=109	=109
(16GGLL	.	8D]	.	8r	.	4bb-	.	i
16BB-)	.	.	.	.	.	.	.	.
(16BB-	.	4d	.	16r	.	.	.	.
16DJJ)	.	.	.	(16dKL	.	.	.	.
(16FF#XLL	.	.	.	8.dd	.	4r	.	V6
16AA)	.	.	.	.	.	.	.	.
(16AA	.	[8d	.	.	.	.	.	.
16DJJ)	.	.	.	16ccJk)	.	.	.	.
=110	=110	=110	=110	=110	=110	=110	=110	=110
4GG	.	8dL]	.	(16ccLL	.	4r	.	i
.	.	.	.	16b-)	.	.	.	.
.	.	16G'L	.	16b-'	.	.	.	.
.	.	16A'JJ	.	16a'JJ	.	.	.	.
4r	.	(16ALL	.	(16aLL	.	8r	.	.
.	.	16B-)	.	16g)	.	.	.	.
.	.	16B-'	.	16d'	.	16gg'LL	.	.
.	.	16c'JJ	.	16e-X'JJ	.	16ff#X'JJ	.	#viio43
=111	=111	=111	=111	=111	=111	=111	=111	=111
!	!	!LO:TX:b:i:t=dim.	!	!	!	!	!	!
!	!	!LO:TX:a:i:t=dim.	!	!	!	!LO:TX:b:i:t=dim.	!	!
2r	.	(16cLL	.	(16e-XLL	.	(16ff#XLL	.	.
.	.	16B-)	.	16d)	.	16gg)	.	i6
.	.	16B-'	.	16d'	.	16gg'	.	.
.	.	16Bn'JJ	.	16d'JJ	.	16ffn'JJ	.	#viio/iv
.	.	(16BLL	.	(16dLL	.	(16ffLL	.	.
.	.	16c)	.	16e-)	.	16ee-X)	.	iv
.	.	16c'	.	16e-'	.	16ee-'	.	.
.	.	16d'JJ	.	16fn'JJ	.	16dd'JJ	.	#viio6/iv
=112	=112	=112	=112	=112	=112	=112	=112	=112
4r	.	(16dLL	pp	(16fLL	pp	(16ddLL	pp	.
.	.	16e-X)	.	16g)	.	16cc)	.	iv6
.	.	16e-'	.	16g'	.	16cc'	.	.
.	.	16f'JJ	.	16a-X'JJ	.	16bn'JJ	.	#viio43/iv
8r	.	(16fLL	.	(16a-LL	.	(16bLL	.	.
.	.	16e-JJ)	.	16gJJ)	.	16ccJJ)	.	iv6
16E-X'LL	pp	8r	.	8r	.	8r	.	.
16D-X'JJ	.	.	.	.	.	.	.	.
=113	=113	=113	=113	=113	=113	=113	=113	=113
(16D-XLL	.	2r	.	2r	.	4r	.	@none
16C)	.	.	.	.	.	.	.	.
16C'	.	.	.	.	.	.	.	.
16BB-'JJ	.	.	.	.	.	.	.	.
(16BB-LL	.	.	.	.	.	8r	.	.
16AA-X)	.	.	.	.	.	.	.	.
16AA-'	.	.	.	.	.	16eee-X'LL	.	.
16GG'JJ	.	.	.	.	.	16ddd-X'JJ	.	.
=114	=114	=114	=114	=114	=114	=114	=114	=114
(4AA-X	.	[2E-X	.	(16a-XLL	.	(16ddd-XLL	.	.bIII.I
.	.	.	.	16cc)	.	16ccc)	.	.
.	.	.	.	(16cc	.	16ccc'	.	.
.	.	.	.	16ee-XJJ)	.	16bb-'JJ	.	.
8E-X'L)	.	.	.	(16gLL	.	(16bb-LL	.	V7
.	.	.	.	16b-)	.	16aa-X)	.	.
16E-'L	.	.	.	(16b-	.	16aa-'	.	.
16D-X'JJ	.	.	.	16ee-JJ)	.	16gg'JJ	.	V2
=115	=115	=115	=115	=115	=115	=115	=115	=115
(4C	.	2E-_	.	(16a-XLL	.	(4aa-X	.	I6
.	.	.	.	16cc)	.	.	.	.
.	.	.	.	(16cc	.	.	.	.
.	.	.	.	16ee-XJJ)	.	.	.	.
4GG)	.	.	.	(16b-LL	.	8eee-X'L)	.	V65
.	.	.	.	16dd-X)	.	.	.	.
.	.	.	.	(16dd-	.	16eee-'L	.	.
.	.	.	.	16ee-JJ)	.	16ddd-X'JJ	.	.
=116	=116	=116	=116	=116	=116	=116	=116	=116
8.AA-XL	.	2E-_	.	(16a-XLL	.	(4ccc	.	I
.	.	.	.	16cc)	.	.	.	.
.	.	.	.	(16cc	.	.	.	.
(16EE-XJk	.	.	.	16ee-XJJ)	.	.	.	.
8.E-XL	sf >	.	.	(16gLL	.	4gg)	.	V2
.	.	.	.	16b-)	.	.	.	.
.	.	.	.	(16b-	.	.	.	.
16D-XJk)	]]	.	.	16ee-JJ)	.	.	.	.
=117	=117	=117	=117	=117	=117	=117	=117	=117
4C	p	2E-_	.	(16a-XLL	.	8.aa-XL	.	I6
.	.	.	.	16cc)	.	.	.	.
.	.	.	.	(16cc	.	.	.	.
.	.	.	.	16ee-XJJ)	.	(16ee-XJk	.	.
4GG	.	.	.	(16b-LL	sf	8.eee-XL	sf >	V65
.	.	.	.	16dd-X)	>	.	.	.
.	.	.	.	(16dd-	.	.	.	.
.	.	.	.	16ee-JJ)	]]	16ddd-XJk)	]]	.
=118	=118	=118	=118	=118	=118	=118	=118	=118
(16AA-XLL	p	8E-]	p	8cc	p	(16ddd-XLL	p	I
!	!	!	!	!	!	!LO:TX:b:i:t=cresc.	!	!
16E-X)	.	.	.	.	.	16ccc)	.	.
!LO:TX:b:i:t=cresc.	!	!LO:TX:b:i:t=cresc.	!	!	!	!	!	!
16E-'	.	4e-X	.	8r	.	16ccc'	.	.
16D-X'JJ	.	.	.	.	.	16bb-'JJ	.	V2
(16D-LL	.	.	.	4r	.	(16bb-LL	.	.
16C)	.	.	.	.	.	16aa-X)	.	I6
16C'	.	16E-X'LL	.	.	.	16aa-'	.	.
16BB-'JJ	.	16D-X'JJ	.	.	.	16gg-X'JJ	.	iv.iv6
=119	=119	=119	=119	=119	=119	=119	=119	=119
(16BB-LL	.	(16D-XLL	.	8r	.	(16gg-XLL	.	.
16AA)	.	16C)	.	.	.	16ff)	.	V6
16AA'	.	16A'	.	16cc'LL	.	16ff'	.	.
16GG-X'JJ	.	16B-'JJ	.	16b-'JJ	.	16ee'JJ	.	.It6
(16GG-LL	.	(16ALL	.	(16b-LL	.	(16eeLL	.	.
16FF)	.	16B-JJ)	.	16aJJ)	.	16ff)	.	V
16AA'	.	[8F	.	8r	.	16fff'	.	.
16C'JJ	.	.	.	.	.	16eee-X'JJ	.	.
=120	=120	=120	=120	=120	=120	=120	=120	=120
(16CLL	.	8F]	.	2r	.	(16eee-XLL	.	.
16BB-)	.	.	.	.	.	16ddd-X)	.	i
16BB-'	.	4f	.	.	.	16ddd-'	.	.
16E-X'JJ	.	.	.	.	.	16ccc'JJ	.	V2
(16E-LL	.	.	.	.	.	(16cccLL	.	.
16D-X)	.	.	.	.	.	16bb-)	.	i6
16D-'	.	16F'LL	.	.	.	16bb-'	.	.
16C'JJ	.	16E-X'JJ	.	.	.	16aa-X'JJ	.	v.VI6
=121	=121	=121	=121	=121	=121	=121	=121	=121
(16CLL	.	(16E-XLL	.	8r	.	(16aa-XLL	.	.
16BBn)	.	16D)	.	.	.	16gg)	.	V6
16BB'	.	16Bn'	.	16dd'LL	.	16gg'	.	.
16AA-X'JJ	.	16c'JJ	.	16cc'JJ	.	16ff#X'JJ	.	.It6
(16AA-LL	.	(16BLL	.	(16ccLL	.	(16ff#LL	.	.
16GG)	.	16cJ)	.	16bnJJ)	.	16gg)	.	V
16BB'	.	[8GJ	.	8r	.	16ggg'	.	.
16D'JJ	.	.	.	.	.	16fff'JJ	.	V43
=122	=122	=122	=122	=122	=122	=122	=122	=122
(16DLL	.	8G]	.	4r	.	(16fffLL	.	.
16C)	.	.	.	.	.	16eee-X)	.	i
16C'	.	4g	.	.	.	16eee-'	.	.
16F'JJ	.	.	.	.	.	16ddd'JJ	.	V2
(16FLL	.	.	.	8r	.	(16dddLL	.	.
16En)	.	.	.	.	.	16ddd-X)	.	#viio7/iv
16E'	.	16e'LL	.	16gg'LL	.	16ddd-'	.	.
16Dn'JJ	.	16f'JJ	.	16ff'JJ	.	16bb-'JJ	.	#viio6
=123	=123	=123	=123	=123	=123	=123	=123	=123
(16DLL	f	8g	f	8ee	f	(16bb-LL	f	.
16C#X)	.	.	.	.	.	16aa)	.	vi.V65
16C#'	.	16c#X'LL	.	16ee'LL	.	16aa'	.	.
16AA'JJ	.	16a'JJ	.	16cc#X'JJ	.	16gg'JJ	.	V7
(16AALL	.	(16aLL	.	(16cc#LL	.	(16ggLL	.	.
16D)	.	16a)	.	16dd)	.	16ff)	.	i
16DD'	.	16a'	.	16dd'	.	16ff'	.	.
16EE'JJ	.	16g'JJ	.	16cc#'JJ	.	16ee'JJ	.	V43
=124	=124	=124	=124	=124	=124	=124	=124	=124
(16EELL	.	(16gLL	.	(16cc#XLL	.	(16eeLL	.	.
16FF)	.	16f)	.	16a)	.	16dd)	.	i6
16FF'	.	16f'	.	16a'	.	16dd'	.	.
16FF#X'JJ	.	16e-X'JJ	.	16a'JJ	.	16cc'JJ	.	#viio7/iv
(16FF#LL	.	(16e-LL	.	(16aLL	.	(16ccLL	.	.
16GG)	.	16d)	.	16g)	.	16b-)	.	iv
16GG'	.	16d'	.	16g'	.	16b-'	.	.
16AA'JJ	.	16d'JJ	.	16f'JJ	.	16a'JJ	.	i64
=125	=125	=125	=125	=125	=125	=125	=125	=125
(16AALL	.	8dL	.	(16fLL	.	(16aLL	.	i64
16BB-)	.	.	.	16e)	.	16g#X)	.	.Fr6
16BB-'	.	16d'L	.	16e	.	16g#'	.	.
16AA'JJ	.	16c#X'JJ	.	16eJJ	.	16a'JJ	.	.
(16AALL	.	(16c#LL	.	8eL	.	(16aLL	.	V
16BB-)	.	16d)	.	.	.	16g#)	.	.Fr6
16BB-'	.	16d'	.	16eL	.	16g#'	.	.
16AA'JJ	.	16c#'JJ	.	16eJJ	.	16a'JJ	.	V
=126	=126	=126	=126	=126	=126	=126	=126	=126
(16AALL	.	(16c#XLL	.	8eL	.	(16aLL	.	.
16BB-)	.	16d)	.	.	.	16g#X)	.	.Fr6
16BB-'	.	16d'	.	16eL	.	16g#'	.	.
16AA'JJ	.	16c#'JJ	.	16eJJ	.	16a'JJ	.	.
(16AALL	.	(16c#LL	.	8eL	.	(16aLL	.	V
16BB-)	.	16d)	.	.	.	16g#)	.	.Fr6
16BB-'	.	16d'	.	16eL	.	16g#'	.	.
16AA'JJ	.	16c#'JJ	.	16eJJ	.	16a'JJ	.	.
=127	=127	=127	=127	=127	=127	=127	=127	=127
!	!LO:DY:a	!	!	!	!	!	!	!
(16BB-LL	sf sf	(16DLL	.	(16dLL	sf	(16g#XLL	sf	.It6
16AA)	.	16E)	.	16c#X)	.	16a)	.	V
16AA'	.	16E'	.	16c#'	.	16a'	.	.
16BB-'JJ	.	16D'JJ	.	16d'JJ	.	16g#'JJ	.	.It6
!	!LO:DY:a	!	!	!	!	!	!	!
(16BB-LL	sf sf	(16DLL	.	(16dLL	sf	(16g#LL	sf	.
16AA)	.	16E)	.	16c#)	.	16a)	.	V
16AA'	.	16E'	.	16c#'	.	16a'	.	.
16BB-'JJ	.	16D'JJ	.	16d'JJ	.	16g#'JJ	.	.It6
=128	=128	=128	=128	=128	=128	=128	=128	=128
!	!LO:DY:a	!	!LO:DY:a	!	!	!	!	!
(16BB-LL	sf sf	(16DLL	sf	(16dLL	.	(16g#XLL	sf	.
16AA)	.	16E)	.	16c#X)	.	16a)	.	V
16AA'	.	16E'	.	16c#'	.	16a'	.	.
16BB-'JJ	.	16D'JJ	.	16d'JJ	.	16g#'JJ	.	.It6
!	!LO:DY:a	!	!LO:DY:a	!	!	!	!	!
(16BB-LL	sf sf	(16DLL	sf	(16dLL	.	(16g#LL	sf	.
16AA)	.	16E)	.	16c#)	.	16a)	.	V
16AA'	.	16E'	.	16c#'	.	16a'	.	.
16BB-'JJ	.	16D'JJ	.	16d'JJ	.	16g#'JJ	.	.It6
=129	=129	=129	=129	=129	=129	=129	=129	=129
!	!LO:DY:a	!	!LO:DY:a	!	!	!	!	!
(16AALL	ff ff >	[2E	ff >	[2c#X	>	[2a	ff >	V[V64
16GG#X)	.	.	.	.	.	.	.	.
16GG#'	.	.	.	.	.	.	.	.
16AA'JJ	.	.	.	.	.	.	.	.
(16AALL	.	.	.	.	.	.	.	.
16GG#)	.	.	.	.	.	.	.	.
16GG#'	.	.	.	.	.	.	.	.
16AA'JJ	.	.	.	.	.	.	.	.
=130	=130	=130	=130	=130	=130	=130	=130	=130
(16AALL	.	2E_	]]	2c#_	]]	2a_	]]	.
16GG#X)	.	.	.	.	.	.	.	.
16GG#'	.	.	.	.	.	.	.	.
16AA'JJ	.	.	.	.	.	.	.	.
(16AALL	.	.	.	.	.	.	.	.
16GG#)	.	.	.	.	.	.	.	.
16GG#'	.	.	.	.	.	.	.	.
16AA'JJ	]]	.	.	.	.	.	.	.
=131	=131	=131	=131	=131	=131	=131	=131	=131
!	!	!	!LO:DY:a	!	!	!	!	!
(16AALL	p	(4E]	p p	4c#]	.	2a_	p	.
16GG#X)	.	.	.	.	.	.	.	.
16GG#'	.	.	.	.	.	.	.	.
16AA'JJ	.	.	.	.	.	.	.	.
(16AALL	.	8A'L)	.	8c#X'L	.	.	.	.
16GG#)	.	.	.	.	.	.	.	.
16GG#'	.	16A'L	.	16c#'L	.	.	.	.
16AA'JJ	.	16G'JJ	.	16e'JJ	.	.	.	.
=132	=132	=132	=132	=132	=132	=132	=132	=132
(16AALL	.	(4F	.	(4d	.	(4a]	.	i6
16GG#X)	.	.	.	.	.	.	.	.
16GG#'	.	.	.	.	.	.	.	.
16AA'JJ	.	.	.	.	.	.	.	.
(16AALL	.	8C#X'L)	.	8a'L)	.	8aa'L)	.	V6
16GG#)	.	.	.	.	.	.	.	.
16GG#'	.	16C#'L	.	16a'L	.	16aa'L	.	i
16AA'JJ	.	16E'JJ	.	16g'JJ	.	16gg'JJ	.	.
=133	=133	=133	=133	=133	=133	=133	=133	=133
(16AALL	.	(8.DL	<	(8.fL	<	4ff	.	.
16GG#X)	.	.	.	.	.	.	.	.
16GG#'	.	.	.	.	.	.	.	.
16AA'JJ	.	16FJk	.	16dJk	.	.	.	.
(16AALL	.	8.AL	[ >	8.c#XL	[ >	4r	.	V
16GG#)	.	.	.	.	.	.	.	.
16GG#'	.	.	.	.	.	.	.	.
16AA'JJ	.	16GJk)	]]	16eJk)	]]	.	.	.
=134	=134	=134	=134	=134	=134	=134	=134	=134
(16AALL	.	(8.FL	<	(8.dL	<	8r	.	i6
16GG#X)	.	.	.	.	.	.	.	.
16GG#'	.	.	.	.	.	16r	.	.
16AA'JJ	.	16DJk	.	16fJk	.	(16ff	<	i
(16AALL	.	8.C#XL	[ >	8.aL	[ >	8.aaL	>	V6]
16GG#)	.	.	.	.	.	.	.	.
16GG#'	.	.	.	.	.	.	.	.
16AA'JJ	.	16EJk)	]]	16gJk)	]]	16ggJk)	] ]]	.
=135	=135	=135	=135	=135	=135	=135	=135	=135
(16BB-LL	.	(4D	.	(4f	.	4ff	.	VI
16AA)	.	.	.	.	.	.	.	.
16BB-'	.	.	.	.	.	.	.	.
16BB-'JJ	.	.	.	.	.	.	.	.
(16BB-LL	.	8B-L)	.	8dL)	.	4r	.	.bVII.V
16AA)	.	.	.	.	.	.	.	.
16BB-'	.	16B-'L	.	16d'L	.	.	.	.
16BB-'JJ	.	16A-X'JJ	.	16f'JJ	.	.	.	.
=136	=136	=136	=136	=136	=136	=136	=136	=136
(16BB-LL	.	(4G	.	(4e-X	.	4r	.	I64
16AA)	.	.	.	.	.	.	.	.
16BB-'	.	.	.	.	.	.	.	.
16BB-'JJ	.	.	.	.	.	.	.	.
(16BB-LL	.	8DL)	.	8b-L)	.	8bb-L	.	.
16AA)	.	.	.	.	.	.	.	.
16BB-'	.	16D'L	.	16b-'L	.	16bb-'L	.	V7
16BB-'JJ	.	16F'JJ	.	16a-X'JJ	.	16aa-X'JJ	.	.
=137	=137	=137	=137	=137	=137	=137	=137	=137
(16BB-LL	.	(8.E-XL	<	(8.gL	<	4gg	.	I64
16AA)	.	.	.	.	.	.	.	.
16BB-'	.	.	.	.	.	.	.	.
16BB-'JJ	.	16GJk	.	16e-XJk	.	.	.	.
(16BB-LL	.	8.B-L	[ >	8.dL	[ >	4r	.	V7
16AA)	.	.	.	.	.	.	.	.
16BB-'	.	.	.	.	.	.	.	.
16BB-'JJ	.	16A-XJk)	]]	16fJk)	]]	.	.	.
=138	=138	=138	=138	=138	=138	=138	=138	=138
(16BB-LL	.	(8.GL	<	(8.e-XL	<	8r	.	I64
16AA)	.	.	.	.	.	.	.	.
16BB-'	.	.	.	.	.	16r	.	.
16BB-'JJ	.	16E-XJk	.	16gJk	.	(16ggKL	<	.
(16BB-LL	.	8.DL	[ >	8.b-L	[ >	8.bb-	>	V
16AA)	.	.	.	.	.	.	.	.
16AA'	.	.	.	.	.	.	.	.
16BBn'JJ	.	16FJk)	]]	16a-XJk)	]]	16aa-XJk)	] ]]	#viio7/vi
=139	=139	=139	=139	=139	=139	=139	=139	=139
!LO:TX:b:i:t=cresc.	!	!LO:TX:b:i:t=cresc.	!	!LO:TX:b:i:t=cresc.	!	!LO:TX:b:i:t=cresc.	!	!
(16CLL	.	8.EL	.	8.gL	.	8.ggL	.	V/ii
16BBn)	.	.	.	.	.	.	.	.
16BB'	.	.	.	.	.	.	.	.
16C'JJ	.	16EJk	.	16gJk	.	16ggJk	.	.
(16CLL	.	(8.EL	.	(8.ccL	.	(8.cccL	.	V7/ii
16BB)	.	.	.	.	.	.	.	.
16BB'	.	.	.	.	.	.	.	.
16C'JJ	.	16GJk)	.	16b-Jk)	.	16bb-Jk)	.	.
=140	=140	=140	=140	=140	=140	=140	=140	=140
(16CLL	.	(8.GL	.	(8.ccL	.	(8.cccL	.	.
16BBn)	.	.	.	.	.	.	.	.
16BB'	.	.	.	.	.	.	.	.
16C'JJ	.	16cJk)	.	16b-Jk)	.	16bb-Jk)	.	.
16CLL	.	(16cLL	.	(16ccLL	.	(16cccLL	.	.
16C	.	16e)	.	16b-)	.	16bb-)	.	.
16C	.	(16e	.	(16cc	.	(16ccc	.	.
16CJJ	.	16gJJ)	.	16b-JJ)	.	16bb-JJ)	.	.
=141	=141	=141	=141	=141	=141	=141	=141	=141
16C#X'LL	f	16g'LL	f	8.aL	f	8.aaL	f	vi.V65
16A'J	.	16g'J	.	.	.	.	.	.
[8AJ	.	[8gJ	.	.	.	.	.	.
.	.	.	.	16ee'Jk	.	16ccc#X'Jk	.	.
16ALL]	.	16gLL]	.	8.eeL	.	8.ccc#L	.	V7
16AJ	.	16gJ	.	.	.	.	.	.
[8AJ	.	[8gJ	.	.	.	.	.	.
.	.	.	.	16ccc#X'Jk	.	16eee'Jk	.	.
=142	=142	=142	=142	=142	=142	=142	=142	=142
16ALL]	.	16gLL]	.	8.ccc#XL	.	8.eeeL	.	.
16AJ	.	16c#XJ	.	.	.	.	.	.
[8AJ	.	[8c#J	.	.	.	.	.	.
.	.	.	.	16eee'Jk	.	16ggg'Jk	.	.
16ALL]	.	16c#LL]	.	(16eeeLL	.	(16gggLL	.	.
16A	.	16c#	.	16ccc#)	.	16eee)	.	.
16A	.	16c#	.	16gg'	.	16ccc#X'	.	.
16AJJ	.	16c#JJ	.	16ee'JJ	.	16gg'JJ	.	.
=143	=143	=143	=143	=143	=143	=143	=143	=143
16DLL	.	16fLL	.	8.ddL	.	8.ffL	.	i
16dJ	.	16fJ	.	.	.	.	.	.
[8dJ	.	[8fJ	.	.	.	.	.	.
.	.	.	.	16ffJk	.	16aaJk	.	.
16dLL]	.	16fLL]	.	8.ffL	.	8.aaL	.	.
16dJ	.	16fJ	.	.	.	.	.	.
[8dJ	.	[8fJ	.	.	.	.	.	.
.	.	.	.	16aaJk	.	16dddJk	.	.
=144	=144	=144	=144	=144	=144	=144	=144	=144
16dLL]	.	16fLL]	.	8.aaL	.	8.dddL	.	.
16dJ	.	16fJ	.	.	.	.	.	.
[8dJ	.	[8fJ	.	.	.	.	.	.
.	.	.	.	16dddJk	.	16fffJk	.	.
16dLL]	.	16fLL]	.	8.dddL	.	8.fffL	.	.
16d	.	16f	.	.	.	.	.	.
16d	.	16f	.	.	.	.	.	.
16dJJ	.	16fJJ	.	16aaJk	.	16aaaJk	.	.
=145	=145	=145	=145	=145	=145	=145	=145	=145
16GLL	.	16gLL	.	8.bb-L	.	8.bbb-L	.	.bII6
16GGJ	.	16B-J	.	.	.	.	.	.
[8GGJ	.	[8B-J	.	.	.	.	.	.
.	.	.	.	16ee-XJk	.	16eee-XJk	.	.
16GGLL]	.	16B-LL]	.	8.ee-L	.	8.eee-L	.	.
16GGJ	.	16B-J	.	.	.	.	.	.
[8GGJ	.	[8B-J	.	.	.	.	.	.
.	.	.	.	16ggJk	.	16gggJk	.	.
=146	=146	=146	=146	=146	=146	=146	=146	=146
16GGLL]	.	16B-LL]	.	8.ggL	.	8.gggL	.	V7
16AAJ	.	16GJ	.	.	.	.	.	.
[8AAJ	.	[8GJ	.	.	.	.	.	.
.	.	.	.	16cc#XJk	.	16ccc#XJk	.	.
16AALL]	.	16GLL]	.	8.cc#L	.	8.ccc#L	.	.
16E	.	16G	.	.	.	.	.	.
16E	.	16G	.	.	.	.	.	.
16EJJ	.	16GJJ	.	16cc#Jk	.	16aaaJk	.	.
=147	=147	=147	=147	=147	=147	=147	=147	=147
8.EL	.	8.GL	.	16cc#XLL	.	16aaaLL	.	V43
.	.	.	.	16ggJ	.	16aaaJ	.	.
.	.	.	.	[8ggJ	.	[8aaaJ	.	.
16G'Jk	.	16c#X'Jk	.	.	.	.	.	.
8.GL	.	8.c#L	.	16ggLL]	.	16aaaLL]	.	.
.	.	.	.	16ggJ	.	16aaaJ	.	.
.	.	.	.	[8ggJ	.	[8aaaJ	.	.
16c#X'Jk	.	16e'Jk	.	.	.	.	.	.
=148	=148	=148	=148	=148	=148	=148	=148	=148
8.c#XL	.	8.eL	.	16ggLL]	.	16aaaLL]	.	V65
.	.	.	.	16ggJ	.	16aaaJ	.	.
.	.	.	.	[8ggJ	.	[8aaaJ	.	.
16e'Jk	.	16g'Jk	.	.	.	.	.	.
(16gLL	.	(16gLL	.	16ggLL]	.	16aaaLL]	.	.
16e)	.	16e)	.	16gg	.	16aaa	.	.
16A'	.	16c#X'	.	16gg	.	16aaa	.	.
16E'JJ	.	16G'JJ	.	16cc#XJJ	.	16aaaJJ	.	.
=149	=149	=149	=149	=149	=149	=149	=149	=149
8.DL	.	8.FL	.	16ddLL	.	16aaaLL	.	i
.	.	.	.	16ffJ	.	16aaaJ	.	.
.	.	.	.	[8ffJ	.	[8aaaJ	.	.
16F'Jk	.	16A'Jk	.	.	.	.	.	.
8.FL	.	8.AL	.	16ffLL]	.	16aaaLL]	.	.
.	.	.	.	16ffJ	.	16aaaJ	.	.
.	.	.	.	[8ffJ	.	[8aaaJ	.	.
16A'Jk	.	16d'Jk	.	.	.	.	.	.
=150	=150	=150	=150	=150	=150	=150	=150	=150
8.AL	.	8.dL	.	16ffLL]	.	16aaaLL]	.	.
.	.	.	.	16ffJ	.	16aaaJ	.	.
.	.	.	.	[8ffJ	.	[8aaaJ	.	.
16d'Jk	.	16f'Jk	.	.	.	.	.	.
(16dLL	.	8.fL	.	16ffLL]	.	16aaaLL]	.	.
16A)	.	.	.	16ffJ	.	16aaaJ	.	.
16F'	.	.	.	[8ffJ	.	[8aaaJ	.	.
16D'JJ	.	16a'Jk	.	.	.	.	.	.
=151	=151	=151	=151	=151	=151	=151	=151	=151
8.GL	.	8.b-L	.	16ffLL]	.	16aaaLL]	.	ii%65
.	.	.	.	16eeJ	.	16gggJ	.	.
.	.	.	.	[8eeJ	.	[8gggJ	.	.
16GJk	.	16eJk	.	.	.	.	.	.
8.GL	.	8.eL	.	16eeLL]	.	16gggLL]	.	.
.	.	.	.	16eeJ	.	16gggJ	.	.
.	.	.	.	[8eeJ	.	[8gggJ	.	.
16GJk	.	16gJk	.	.	.	.	.	.
=152	=152	=152	=152	=152	=152	=152	=152	=152
8.AL	.	8.gL	.	16eeLL]	.	16gggLL]	.	V7
.	.	.	.	16eeJ	.	16gggJ	.	.
.	.	.	.	[8eeJ	.	[8gggJ	.	.
16AAJk	.	16c#XJk	.	.	.	.	.	.
8.AAL	.	8.c#L	.	16eeLL]	.	16gggLL]	.	.
.	.	.	.	16eeJ	.	16gggJ	.	.
.	.	.	.	[8eeJ	.	[8gggJ	.	.
16AAJk	.	16eJk	.	.	.	.	.	.
=153	=153	=153	=153	=153	=153	=153	=153	=153
8.DL	.	8.fL	.	16eeLL]	.	16gggLL]	.	i\\
.	.	.	.	16ddJ	.	16fffJ	.	.
.	.	.	.	[8ddJ	.	[8fffJ	.	.
16CJk	.	16aJk	.	.	.	.	.	.
8.BB-L	.	8.dL	.	16ddLL]	.	16fffLL]	.	VI
.	.	.	.	16ddJ	.	16fffJ	.	.
.	.	.	.	[8ddJ	.	[8fffJ	.	.
16AAJk	.	16fJk	.	.	.	.	.	.
=154	=154	=154	=154	=154	=154	=154	=154	=154
8.GGL	.	8.B-L	.	16ddLL]	.	16fffLL]	.	.bII6
.	.	.	.	16ee-XJ	.	16gggJ	.	.
.	.	.	.	[8bb-J	.	[8gggJ	.	.
16GGJk	.	16e-XJk	.	.	.	.	.	.
8.AAL	.	8.dL	.	16bb-LL]	.	16gggLL]	.	V7(4)
.	.	.	.	16aaJ	.	16gggJ	.	.
.	.	.	.	8aaJ	.	8gggJ	.	V7
16AAJk	.	16c#XJk	.	.	.	.	.	.
=155	=155	=155	=155	=155	=155	=155	=155	=155
16D'KL	.	16f'KL	.	16aaKL	.	16fffKL	.	i\\
8.CJ	sf	8.aJ	sf	8ddd	.	8eee 8fff	.	III43
.	.	.	.	[16dddJk	.	[16fffJk	.	.
16BB-KL	.	16dKL	.	16dddKL]	.	16fffKL]	.	VI
8.AAJ	.	8.fJ	.	8ddd	.	8fff	.	.
.	.	.	.	16dddJk	.	16fffJk	.	.
=156	=156	=156	=156	=156	=156	=156	=156	=156
16GGKL	.	16B-KL	.	16eee-XKL	.	16gggKL	.	.bII6
8.GGJ	.	8.e-XJ	.	8bb-	.	8ggg	.	.
.	.	.	.	[16bb-Jk	.	[16gggJk	.	.
16AAKL	.	16dKL	.	16bb-KL]	.	16gggKL]	.	V7
8.AAJ	.	8.c#XJ	.	8aa	.	8ggg	.	.
.	.	.	.	16aaJk	.	16gggJk	.	.
=157	=157	=157	=157	=157	=157	=157	=157	=157
16dLL	ff	16ddLL	ff	16aaKL	ff	16fffKL	ff	i\\
16A	.	16a	.	8dd 8ddd	.	8fff	.	.
16B-	.	16b-	.	.	.	.	.	.
16GJJ	.	16gJJ	.	[16ddJk [16ddd	.	16fffJk	.	.
16ALL	.	16aLL	.	16ddLL] 16ddd]	.	16fffLL	.	.
16F	.	16f	.	16aa	.	(16aaa	.	.
16G	.	16g	.	16bb-	.	16bbb-)	.	.
(16EJJ	.	(16eJJ	.	(16ggJJ	.	(16gggJJ	.	.
=158	=158	=158	=158	=158	=158	=158	=158	=158
16FLL)	.	16fLL)	.	16aaLL)	.	16aaaLL)	.	i
(16D	.	(16d	.	(16ff	.	(16fff	.	.
16E)	.	16e)	.	16gg)	.	16ggg)	.	#viio
(16C#XJJ	.	(16c#XJJ	.	(16eeJJ	.	(16eeeJJ	.	.
16DLL)	.	16dLL)	.	16ffLL)	.	16fffLL)	.	i
(16DD	.	(16D	.	(16dd	.	(16ddd	.	.
16CC#X)	.	16C#X)	.	16ee)	.	16eee)	.	#viio
(16EEJJ	.	(16EJJ	.	(16cc#XJJ	.	(16ccc#XJJ	.	.
=159	=159	=159	=159	=159	=159	=159	=159	=159
16DDLL)	.	16DLL)	.	16ddLL)	.	16dddLL)	.	i
(16FF	.	(16F	.	(16a	.	(16aa	.	.
16EE)	.	16E)	.	16b-)	.	16bb-)	.	iio
(16GGJJ	.	(16GJJ	.	(16gJJ	.	(16ggJJ	.	.
16FFLL)	.	16FLL)	.	16aLL)	.	16aaLL)	.	i6
(16D	.	(16F	.	(16a	.	(16ff	.	.
16C#X)	.	16E)	.	16b-)	.	16gg)	.	V65
(16EJJ	.	(16GJJ	.	(16gJJ	.	(16eeJJ	.	.
=160	=160	=160	=160	=160	=160	=160	=160	=160
16DLL)	.	16FLL)	.	16aLL)	.	16ffLL)	.	i
(16F	.	(16A	.	(16f	.	(16dd	.	.
16E)	.	16G)	.	16g)	.	16ee)	.	#viio6
(16GJJ	.	(16B-JJ	.	(16eJJ	.	(16cc#XJJ	.	.
16FLL)	.	16ALL)	.	16fLL)	.	16ddLL)	.	i6
16D	.	(16G	.	(16e	.	(16cc#	.	i[#viio43
16D	.	16B-)	.	16g)	.	16ee)	.	.
16DJJ	.	(16GJJ	.	(16eJJ	.	(16cc#JJ	.	.
=161	=161	=161	=161	=161	=161	=161	=161	=161
!LO:TX:b:i:t=dim.	!	!LO:TX:b:i:t=dim.	!	!LO:TX:b:i:t=dim.	!	!LO:TX:b:i:t=dim.	!	!
16DLL	.	16ALL)	.	16fLL)	.	16ddLL)	.	i64
16D	.	(16G	.	(16B-	.	(16c#X	.	#viio43
16D	.	16E	.	16G	.	16e	.	.
16DJJ	.	16GJJ	.	16B-JJ	.	16c#JJ	.	.
16DLL	.	16FLL	.	16ALL	.	16dLL	.	i6
16D	.	16G	.	16B-	.	16c#	.	#viio43
16D	.	16E	.	16G	.	16e	.	.
16DJJ	.	16GJJ	.	16B-JJ	.	16c#JJ	.	.
=162	=162	=162	=162	=162	=162	=162	=162	=162
16DLL	.	16FLL	.	16ALL	.	16dLL	.	i6
16D	.	16G	.	16B-	.	16c#X	.	#viio43
16D	.	16E	.	16G	.	16e	.	.
16DJJ	.	16GJJ	.	16B-JJ	.	16c#JJ	.	.
16DLL	.	16FLL	.	16ALL	.	16dLL	.	i6
16DD	.	16G	.	16B-	.	16c#	.	#viio43
16DD	.	16E	.	16G	.	16e	.	.
16DDJJ	.	16GJJ	.	16B-JJ	.	16c#JJ	.	.
=163	=163	=163	=163	=163	=163	=163	=163	=163
!	!	!	!LO:DY:a	!	!	!	!	!
(16DDLL	p	[2F)	p p	[2A)	.	[2dT)	p	i6
16CC#X	.	.	.	.	.	.	.	.
!LO:TX:a:i:t=dim.	!	!	!	!	!	!	!	!
16EE	.	.	.	.	.	.	.	.
16CC#JJ	.	.	.	.	.	.	.	.
16DDLL	.	.	.	.	.	.	.	.
16CC#	.	.	.	.	.	.	.	.
16EE	.	.	.	.	.	.	.	.
16CC#JJ	.	.	.	.	.	.	.	.
=164	=164	=164	=164	=164	=164	=164	=164	=164
!	!	!	!	!	!	!LO:TX:b:i:t=dim.	!	!
16DDLL	.	2F]	.	2A]	.	2d]	.	.
16CC#X	.	.	.	.	.	.	.	.
16EE	.	.	.	.	.	.	.	.
16CC#JJ	.	.	.	.	.	.	.	.
16DDLL	.	.	.	.	.	.	.	.
16CC#	.	.	.	.	.	.	.	.
16EE	.	.	.	.	.	.	.	.
16CC#JJ)	.	.	.	.	.	.	.	.
=165	=165	=165	=165	=165	=165	=165	=165	=165
8.DDL	pp	16d'LL	pp	8.dL	pp	8.fL	pp	i]
.	.	16A'J	.	.	.	.	.	.
.	.	[8AJ	.	.	.	.	.	.
16C#X'Jk	.	.	.	16e'Jk	.	16g'Jk	.	V65
8.DL	.	16ALL]	.	8.dL	.	8.fL	.	i
.	.	16A'J	.	.	.	.	.	.
.	.	[8AJ	.	.	.	.	.	.
16AA'Jk	.	.	.	16c#X'Jk	.	16e'Jk	.	V
=166	=166	=166	=166	=166	=166	=166	=166	=166
8.DL	.	16ALL]	.	8.dL	.	8.fL	.	i
.	.	16AJ	.	.	.	.	.	.
.	.	[8AJ	.	.	.	.	.	.
16C#X'Jk	.	.	.	16e'Jk	.	16g'Jk	.	V65
8.DL	.	16ALL]	.	8.dL	.	8.fL	.	i
.	.	16A'J	.	.	.	.	.	.
.	.	[8AJ	.	.	.	.	.	.
16AA'Jk	.	.	.	16c#X'Jk	.	16e'Jk	.	V
=167	=167	=167	=167	=167	=167	=167	=167	=167
8D	.	(8AL]	.	(4d	.	(4f	.	i
8r	.	16BnL	.	.	.	.	.	.
.	.	16c#XJJ	.	.	.	.	.	.
4r	.	8dL)	.	8fL)	.	8ddL)	.	.
.	.	(8dTJ	.	(8fJ	.	[8ddJ	.	.
=168	=168	=168	=168	=168	=168	=168	=168	=168
4r	.	8eL)	<	8gL)	<	(8ddL]	<	#viio6(2)
.	.	(8etJ	.	(8gJ	.	8cc#XJ	.	.
16qqC/	>	.	.	.	.	.	.	.
(8BBnL	.	4f)	[ > ]]	8a-XL	[ >	4dd)	[ > ]]	v.V65
16AAL	.	.	.	8gJ)	]]	.	.	.
16GGJJ)	]]	.	.	.	.	.	.	.
=169	=169	=169	=169	=169	=169	=169	=169	=169
8.CL	pp	16cLL	pp	8.cL	pp	8.e-XL	pp	i
.	.	16G'J	.	.	.	.	.	.
.	.	[8GJ	.	.	.	.	.	.
16BBn'Jk	.	.	.	16d'Jk	.	16f'Jk	.	V65
8.CL	.	16GLL]	.	8.cL	.	8.e-L	.	i
.	.	16G'J	.	.	.	.	.	.
.	.	[8GJ	.	.	.	.	.	.
16GG'Jk	.	.	.	16Bn'Jk	.	16d'Jk	.	V
=170	=170	=170	=170	=170	=170	=170	=170	=170
8.CL	.	16GLL]	.	8.cL	.	8.e-XL	.	i
.	.	16G'J	.	.	.	.	.	.
.	.	[8GJ	.	.	.	.	.	.
16BBn'Jk	.	.	.	16d'Jk	.	16f'Jk	.	V65
8.CL	.	16GLL]	.	8.cL	.	8.e-L	.	i
.	.	16G'J	.	.	.	.	.	.
.	.	[8GJ	.	.	.	.	.	.
16GG'Jk	.	.	.	16Bn'Jk	.	16d'Jk	.	V
=171	=171	=171	=171	=171	=171	=171	=171	=171
8C	.	(8GL]	.	(4c	.	(4e-X	.	i
8r	.	16AL	.	.	.	.	.	.
.	.	16BnJJ	.	.	.	.	.	.
4r	.	8cL)	.	8e-XL)	.	8ccL)	.	.
.	.	(8cTJ	.	(8e-J	.	[8ccJ	.	.
=172	=172	=172	=172	=172	=172	=172	=172	=172
4r	.	8dL)	<	8fL)	<	(8ccL]	<	#viio6(2)
.	.	(8dTJ	.	(8fJ	.	8bnJ	.	.
16qqBB-/	>	.	.	.	.	.	.	.
(8AAL	.	4e-X)	[ > ]]	8g-XL	[ >	4cc)	[ > ]]	IV.V65
16GGL	.	.	.	8fJ)	]]	.	.	.
16FFJJ)	]]	.	.	.	.	.	.	.
=173	=173	=173	=173	=173	=173	=173	=173	=173
8.BB-L	pp	8.B-L	pp	8.dL	pp	16fLL	pp	I
.	.	.	.	.	.	16fJ	.	.
.	.	.	.	.	.	[8fJ	.	V65
16AAJk	.	16cJk	.	16e-XJk	.	.	.	.
8.BB-L	.	8.B-L	.	8.dL	.	16fLL]	.	I
.	.	.	.	.	.	16fJ	.	.
.	.	.	.	.	.	[8fJ	.	V
16FFJk	.	16AJk	.	16cJk	.	.	.	.
=174	=174	=174	=174	=174	=174	=174	=174	=174
8.BB-L	.	8.B-L	.	8.dL	.	16fLL]	.	I
.	.	.	.	.	.	16fJ	.	.
.	.	.	.	.	.	[8fJ	.	V65
16AAJk	.	16cJk	.	16e-XJk	.	.	.	.
8.BB-L	.	8.B-L	.	8.dL	.	16fLL]	.	I
.	.	.	.	.	.	16fJ	.	.
.	.	.	.	.	.	[8fJ	.	V+
16FFJk	.	16AJk	.	16c#XJk	.	.	.	.
=175	=175	=175	=175	=175	=175	=175	=175	=175
8.BB-L	<	8.B-L	<	8.dL	<	16fLL]	<	I
.	.	.	.	.	.	16fJ	.	.
.	.	.	.	.	.	[8fJ	.	V+
16FFJk	.	16AJk	.	16c#XJk	.	.	.	.
8.BB-L	.	8.B-L	.	8.dL	.	16fLL]	.	I
.	.	.	.	.	.	16fJ	.	.
.	.	.	.	.	.	[8fJ	[[	V+
16FFJk	[[	16AJk	[[	16c#Jk	[[	.	.	.
=176	=176	=176	=176	=176	=176	=176	=176	=176
8.BB-L	>	8.B-L	>	8.dL	>	16fLL]	>	I
.	.	.	.	.	.	16fJ	.	.
.	.	.	.	.	.	[8fJ	.	V+
16FFJk	.	16AJk	.	16c#XJk	.	.	.	.
8.BB-L	.	8.B-L	.	8.dL	.	16fLL]	.	I
.	.	.	.	.	.	16fJ	.	.
.	.	.	.	.	.	8fJ	]]	V+
16FFJk	]]	16AJk	]]	16c#Jk	]]	.	.	.
=177	=177	=177	=177	=177	=177	=177	=177	=177
[2BB-	p	(4B-	p	(4d	p	[2f	p	V6
!	!	!LO:TX:b:i:t=dim.	!	!LO:TX:b:i:t=dim.	!	!	!	!
.	.	8AL	.	8cnL	.	.	.	.
.	.	16B-L	.	16dL	.	.	.	.
.	.	16cJJ)	.	16e-XJJ)	.	.	.	.
=178	=178	=178	=178	=178	=178	=178	=178	=178
!LO:TX:a:i:t=dim.	!	!	!	!	!	!LO:TX:b:i:t=dim.	!	!
2BB-_	.	(4d	.	(4f	.	4f]	.	I6
.	.	8e-XL	.	8g-XL	.	8aL	.	viio43
.	.	16dL	.	16fL	.	16b-L	.	.
.	.	16cJJ)	.	16e-XJJ)	.	16ccJJ	.	.
=179	=179	=179	=179	=179	=179	=179	=179	=179
(4BB-]	pp	(4B-	pp	(4d 4b-	pp	(4dd	pp	I]
8E-XL	.	8G-XL	.	8aL	.	8ccL	.	viio43
16DL	.	16FL	.	16b-L	.	16ddL	.	I6
16CJJ)	.	16E-XJJ)	.	16ccJJ)	.	16ee-XJJ)	.	.
=180	=180	=180	=180	=180	=180	=180	=180	=180
4.BB-	.	8D'L	.	8dd'L	.	8ff'L	.	I
.	.	8d'J	.	8dd'J	.	8ff'J	.	.
.	.	8c'L	.	8ee'L	.	8gg'L	.	I.V2
(16AALL	.	8c'J	.	8ee'J	.	8gg'J	.	.
16GGJJ	.	.	.	.	.	.	.	.
=181	=181	=181	=181	=181	=181	=181	=181	=181
!	!	!	!	!	!	!LO:TX:b:i:t=sempre	!	!
8FFL	.	8cL	.	8ff'L	.	(4aa	p	I
16EEL	.	8cJ	.	8ff'J	.	.	.	.
16DDJJ	.	.	.	.	.	.	.	.
8CCL	.	8cL	.	8gg'L	.	8ccc'L)	.	V7
16DDL	.	8cJ	.	8gg'J	.	16ccc'L	.	.
16EEJJ	.	.	.	.	.	16bb-'JJ	.	V65
=182	=182	=182	=182	=182	=182	=182	=182	=182
8FFL	.	8cL	.	8ffL	.	(4aa	.	I
16EEL	.	8cJ	.	8ffJ	.	.	.	.
16FFJJ	.	.	.	.	.	.	.	.
8GGL	.	8cL	.	8eeL	.	8.cccL	.	V64
16FFL	.	8cJ	.	8eeJ	.	.	.	.
16GGJJ	.	.	.	.	.	16bb-Jk)	.	.
=183	=183	=183	=183	=183	=183	=183	=183	=183
8AAL	.	8cL	.	8ffL	.	(4aa	.	I6
16GGL	.	8aJ	.	8ffJ	.	.	.	.
16AAJJ	.	.	.	.	.	.	.	.
8BBnL	.	8aL	.	8eeL	.	8ggL	.	vi.V6(+2)
16C#XL	.	8aJ	.	8eeJ	.	16aaL	.	V6
16AAJJ	.	.	.	.	.	16eeJJ)	.	.
=184	=184	=184	=184	=184	=184	=184	=184	=184
8DL	.	8a	.	8dd	.	8ff'L	.	i
16EL	.	8fL	.	8aL	.	8dd'J	.	i6
16FJJ	.	.	.	.	.	.	.	.
8GL	.	8e	.	8a	.	8cc#X'L	.	V2
16AL	.	8eJ	.	8aJ	.	8a'J	.	.
16GJJ	.	.	.	.	.	.	.	.
=185	=185	=185	=185	=185	=185	=185	=185	=185
8FL	.	8fL	.	8aL	.	8dd'L	.	i6
16EL	.	8aJ	.	8ddJ	.	8ff'J	.	i
16DJJ	.	.	.	.	.	.	.	.
8GL	.	8b-L	.	8ddL	.	8ee'L	.	ii%65
8AJ)	.	8gJ	.	8cc#XJ	.	8aa'J	.	V
=186	=186	=186	=186	=186	=186	=186	=186	=186
!LO:TX:a:i:t=cresc.	!	!	!	!	!	!LO:TX:b:i:t=cresc.	!	!
2B-	.	2r	.	2r	.	2d 2dd	.	VI\\
=187	=187	=187	=187	=187	=187	=187	=187	=187
(16B-LL	f	(4d	f	(4dd	f	(4ff	f	I.IV
16d)	.	.	.	.	.	.	.	.
16B-'	.	.	.	.	.	.	.	.
16d'JJ	.	.	.	.	.	.	.	.
(16B-LL	.	8cL	.	8ccnL	.	8eeL	.	V2
16c)	.	.	.	.	.	.	.	.
16B-'	.	16dL	.	16ddL	.	16ffL	.	.
16c'JJ	.	16eJJ)	.	16eeJJ)	.	16ggJJ)	.	.
=188	=188	=188	=188	=188	=188	=188	=188	=188
(8AL	.	8fL	.	8ffL	.	8aaL	.	I6
16GL	.	8fJ	.	8ffJ	.	(16aaL	.	.
16FJJ	.	.	.	.	.	16bb-JJ)	.	.
16ELL	.	8gL	.	8ggL	.	(8cccL	.	V6
16D	.	.	.	.	.	.	.	.
16C	.	8gJ	.	8ggJ	.	16dddL	.	V
16BB-JJ)	.	.	.	.	.	16eeeJJ)	.	.
=189	=189	=189	=189	=189	=189	=189	=189	=189
(8AAL	.	(4a	.	(4aa	.	8fff'L	.	I6
16GGL	.	.	.	.	.	8fff'J	.	.
16FFJJ	.	.	.	.	.	.	.	.
16EELL	.	8cc'L)	.	8ccc'L)	.	8ggg'L	.	V
16DD	.	.	.	.	.	.	.	.
16EE	.	16cc'L	.	16ccc'L	.	8ggg'J	.	V65
16CCJJ)	.	16b-'JJ	.	16bb-'JJ	.	.	.	.
=190	=190	=190	=190	=190	=190	=190	=190	=190
(16FFLL	ff	4a	ff	4aa	ff	(4aaa	ff	I\\
16AA)	.	.	.	.	.	.	.	.
(16AA	.	.	.	.	.	.	.	.
16CJJ)	.	.	.	.	.	.	.	.
(16EELL	.	8gL	.	8ccL	.	8cccc'L)	.	V65
16GG)	.	.	.	.	.	.	.	.
(16GG	.	8gJ	.	8ccJ	.	16cccc'L	.	.
16CJJ)	.	.	.	.	.	16bbb-'JJ	.	.
=191	=191	=191	=191	=191	=191	=191	=191	=191
(16FFLL	.	8.aL	.	8.ccL	.	4aaa	.	I
16AA)	.	.	.	.	.	.	.	.
(16AA	.	.	.	.	.	.	.	.
16CJJ)	.	(16aJk	.	(16aaJk	.	.	.	.
(16CCLL	.	8.ccL	sf	8.cccL	sf	4r	.	V7
16EE)	.	.	.	.	.	.	.	.
(16EE	.	.	.	.	.	.	.	.
16GGJJ)	.	16b-Jk)	.	16bb-Jk)	.	.	.	.
=192	=192	=192	=192	=192	=192	=192	=192	=192
(16FFLL	.	8.aL	.	8.aaL	.	8r	.	I
16AA)	.	.	.	.	.	.	.	.
(16AA	.	.	.	.	.	16r	.	.
16CJJ)	.	16aJk	.	16cccJk	.	(16aaaKL	.	.
(16EELL	.	8.gL	.	8.cccL	.	8.cccc	sf	V6
16GG)	.	.	.	.	.	.	.	.
(16GG	.	.	.	.	.	.	.	.
16CJJ)	.	16gJk	.	16cccJk	.	16bbb-Jk)	.	.
=193	=193	=193	=193	=193	=193	=193	=193	=193
(16FFLL	.	8a	.	(16cccLL	.	(16bbb-LL	.	I
16AA)	.	.	.	16fff)	.	16aaa)	.	.
(16AA	.	4f	.	16fff'	.	16aaa'	.	.
16CJJ)	.	.	.	16eee'JJ	.	16ggg'JJ	.	.
(16AALL	.	.	.	(16eeeLL	.	(16gggLL	.	I6
16C)	.	.	.	16ddd)	.	16fff)	.	.
(16C	.	[8F	.	16ddd'	.	16fff'	.	.
16FJJ)	.	.	.	16ccc'JJ	.	16eee'JJ	.	.
=194	=194	=194	=194	=194	=194	=194	=194	=194
(16BB-LL	.	4F]	.	(16cccLL	.	(16eeeLL	.	IV
16D)	.	.	.	16bb-)	.	16ddd)	.	.
(16D	.	.	.	16bb-'	.	16ddd'	.	.
16FJJ)	.	.	.	16aa'JJ	.	16ccc#X'JJ	.	.
4r	.	8r	.	(16aaLL	.	(16ccc#LL	.	.
.	.	.	.	16bb-JJ)	.	16ddd)	.	.
.	.	16b-'LL	.	8r	.	16ddd'	.	.
.	.	16a'JJ	.	.	.	16cccn'JJ	.	.
=195	=195	=195	=195	=195	=195	=195	=195	=195
(16GGLL	.	(16aLL	.	2r	.	(16cccLL	.	ii
16BB-)	.	16g)	.	.	.	16bb-)	.	.
(16BB-	.	16g'	.	.	.	16bb-'	.	.
16DJJ)	.	16f'JJ	.	.	.	16aa'JJ	.	.
(16GGLL	.	(16fLL	.	.	.	(16aaLL	.	V7/V
16BBn)	.	16e)	.	.	.	16gg)	.	.
(16BB	.	16e'	.	.	.	16gg'	.	.
16DJJ)	.	16d'JJ	.	.	.	16ff'JJ	.	.
=196	=196	=196	=196	=196	=196	=196	=196	=196
(16CCLL	.	(16dLL	.	8r	.	(16ffLL	.	V
16GG)	.	16c)	.	.	.	16eeJJ)	.	.
(16GG	.	16e'	p	16ee'LL	p	8r	.	.
16CJJ)	.	16f'JJ	.	16ff'JJ	.	.	.	.
4r	.	(16f#XLL	.	(16ff#XLL	.	4r	.	.
.	.	16g)	.	16gg)	.	.	.	.
.	.	16g'	.	16gg'	.	.	.	.
.	.	16fn'JJ	.	16ffn'JJ	.	.	.	.
=197	=197	=197	=197	=197	=197	=197	=197	=197
8r	.	(16fLL	.	(16ffLL	.	2r	.	.
.	.	16e)	.	16ee)	.	.	.	.
(16CLL	p	16e'	.	16ee'	.	.	.	.
16EJJ	.	16d'JJ	.	16dd'JJ	.	.	.	.
16CLL	.	(16dLL	.	(16ddLL	.	.	.	.
16E	.	16c)	.	16cc)	.	.	.	.
16D	.	16c'	.	16cc'	.	.	.	.
16FJJ)	.	16Bn'JJ	.	16bn'JJ	.	.	.	.
=198	=198	=198	=198	=198	=198	=198	=198	=198
(16DLL	<	(16cLL	<	(16ccLL	<	2r	.	I
16F	.	16B-X)	.	16b-X)	.	.	.	.
16D	.	(16B-	.	(16b-	.	.	.	.
16FJJ	.	16fJJ	.	16ffJJ	.	.	.	.
16ELL	.	16gLL	.	16ggLL	.	.	.	.
16G	[ >	16B-	[ >	16b-	[ >	.	.	.
16F	.	16A	.	16a	.	.	.	.
16AJJ)	]]	16fJJ)	]]	16ffJJ)	]]	.	.	.
=199	=199	=199	=199	=199	=199	=199	=199	=199
2r	.	2r	.	(16dLL	<	(16cccLL	<	IV6
.	.	.	.	16f	.	16bb-)	.	.
.	.	.	.	16d	.	(16bb-	.	.
.	.	.	.	16fJJ	.	16fffJJ	.	.
.	.	.	.	16eLL	.	16gggLL	.	V65
.	.	.	.	16g	[ >	16bb-	[ >	.
.	.	.	.	16f	.	16aa	.	I
.	.	.	.	16aJJ)	]]	16fffJJ)	]]	.
=200	=200	=200	=200	=200	=200	=200	=200	=200
!	!	!	!LO:DY:a	!	!	!	!	!
8r	.	(16GLL	p p	(16gLL	.	4r	.	ii6
.	.	16dJJ)	.	16ddJJ)	.	.	.	.
8BB-	p	16r	.	16r	.	.	.	.
.	.	16d	.	16dd	.	.	.	.
8r	.	(16ELL	.	(16eLL	.	(16fff#XLL	p	i.V
.	.	16cJJ)	.	16ccJJ)	.	16ggg)	.	.
8C	.	16r	.	16r	.	16fffn'	.	.
.	.	16c	.	16cc	.	16eee'JJ	.	.
=201	=201	=201	=201	=201	=201	=201	=201	=201
2r	.	2r	.	8r	.	(16ddd-XLL	<	.
.	.	.	.	.	.	16ccc	.	.
.	.	.	.	(16d-XLL	<	16bb-	.	iv6
.	.	.	.	16fJJ	.	16fffJJ	.	.
.	.	.	.	16cLL	.	16gggLL	.	V7
.	.	.	.	16e	[ >	16bb-	[ >	.
.	.	.	.	16f	.	16aa-X	.	i
.	.	.	.	16a-XJJ)	]]	16fffJJ)	]]	.
=202	=202	=202	=202	=202	=202	=202	=202	=202
8r	.	(16d-XLL	<	(16dd-XLL	<	8r	.	.
.	.	16c	.	16cc	.	.	.	.
(16DD-XLL	<	16B-	.	16b-	.	8r	.	iv6
16FFJJ	.	16fJJ	.	16ffJJ	.	.	.	.
16CCLL	.	16gLL	.	16ggLL	.	8r	.	V7
16EE	[ >	16B-	[ >	16b-	[ >	.	.	.
16FF	.	16A-X	.	16a-X	.	8r	.	i
16AA-XJJ)	]]	16fJJ)	]]	16ffJJ)	]]	.	.	.
=203	=203	=203	=203	=203	=203	=203	=203	=203
!	!	!	!LO:DY:a	!	!	!	!	!
8r	.	(16GLL	p p	(16gLL	.	8r	.	iio
.	.	16d-XJJ)	.	16dd-XJJ)	.	.	.	.
!	!	!	!	!LO:TX:a:i:t=cresc.	!	!	!	!
8BB-	p	16r	.	16r	.	(16ggLL	p	iio6
.	.	16d-	.	16dd-	.	16ddd-XJJ)	.	.
!	!	!LO:TX:b:i:t=cresc.	!	!LO:TX:b:i:t=cresc.	!	!	!	!
8r	.	(16ELL	.	(16eLL	.	8r	.	.
.	.	16cJJ)	.	16ccJJ)	.	.	.	.
!LO:TX:b:i:t=cresc.	!	!	!	!	!	!	!	!
8C	.	16r	.	16r	.	(16eeLL	.	V(64)
.	.	16c	.	16cc	.	16cccJJ)	.	.
=204	=204	=204	=204	=204	=204	=204	=204	=204
8r	.	8r	.	8r	.	(16ffLL	.	i\\
.	.	.	.	.	.	16aa-XJJ)	.	.
(16FLL	.	8A-X	.	8f	.	16r	.	.
16A-XJJ)	.	.	.	.	.	16ff	.	.
8r	.	8r	.	8r	.	(16a-XLL	.	.
.	.	.	.	.	.	16ffJJ)	.	.
(16D-XLL	.	8f	.	8a-X	.	16r	.	VI
16FJJ)	.	.	.	.	.	16ff	.	.
=205	=205	=205	=205	=205	=205	=205	=205	=205
8r	.	8r	.	8r	.	(16gLL	.	iio
.	.	.	.	.	.	16dd-XJJ)	.	.
(16BB-LL	.	8f	.	8g	.	16r	.	iio6
16D-XJJ)	.	.	.	.	.	16dd-	.	.
8r	.	8r	.	8r	.	(16eLL	.	V7
.	.	.	.	.	.	16ccJJ)	.	.
(16CCLL	.	8B-	.	8e	.	16r	.	.
16CJJ)	.	.	.	.	.	16cc	.	.
=206	=206	=206	=206	=206	=206	=206	=206	=206
(4FF	ff	8A-X'L	ff	8f	ff	16ccLL	ff	i\\
.	.	.	.	.	.	(16c	.	.
.	.	8A-'J	.	8c'L	.	16A-X)	.	.
.	.	.	.	.	.	(16fJJ	.	.
8CL	.	8B-'L	.	8c'	.	16gLL)	.	V7
.	.	.	.	.	.	(16e	.	.
16DnL	.	8B-'J	.	8c'J	.	16c)	.	.
16EJJ)	.	.	.	.	.	(16gJJ	.	V6
=207	=207	=207	=207	=207	=207	=207	=207	=207
8F'L	.	8A-XL	.	8cL	.	16a-XLL)	.	i
.	.	.	.	.	.	(16f	.	.
8F'J	.	8A-J	.	8cJ	.	16c)	.	.
.	.	.	.	.	.	(16a-JJ	.	.
8G'L	.	8B-L	.	8eL	.	16b-LL)	.	#viio6
.	.	.	.	.	.	(16g	.	.
8G'J	.	8B-J	.	8eJ	.	16e)	.	.
.	.	.	.	.	.	(16b-JJ	.	.
=208	=208	=208	=208	=208	=208	=208	=208	=208
8A-XL	.	8cL	.	8fL	.	16ccLL)	.	i6
.	.	.	.	.	.	(16a-X	.	.
8A-J	.	8cJ	.	8fJ	.	16f)	.	.
.	.	.	.	.	.	(16ccJJ	.	.
8GL	.	8cL	.	8b-L	.	16eeLL)	.	V43
.	.	.	.	.	.	(16cc	.	.
8GJ	.	8cJ	.	8b-J	.	16g)	.	.
.	.	.	.	.	.	(16eeJJ	.	.
=209	=209	=209	=209	=209	=209	=209	=209	=209
8FL	.	8cL	.	8a-XL	.	16ffLL)	.	i
.	.	.	.	.	.	(16cc	.	.
8FJ	.	8cJ	.	8a-J	.	16a-X)	.	.
.	.	.	.	.	.	(16ffJJ	.	.
8CL	.	8eL	.	8ccL	.	16ggLL)	.	V
.	.	.	.	.	.	(16ee	.	.
8CJ	.	8eJ	.	8ccJ	.	16cc)	.	.
.	.	.	.	.	.	(16ggJJ	.	.
=210	=210	=210	=210	=210	=210	=210	=210	=210
(4AA-X	sf	8fL	.	8ccL	.	16aa-XLL)	.	i6
.	.	.	.	.	.	(16ff	.	.
.	.	8fJ	.	8ccJ	.	16cc)	.	.
.	.	.	.	.	.	(16aa-JJ	.	.
8CCL	.	8gL	.	8b-L	.	16cccLL)	.	V7
.	.	.	.	.	.	(16gg	.	.
16DDL	.	8gJ	.	8b-J	.	16ee)	.	.
16EEJJ)	.	.	.	.	.	16ccc'JJ	.	V65
=211	=211	=211	=211	=211	=211	=211	=211	=211
8FFL	.	8fL	.	8a-XL	.	16ccc'LL	.	i
.	.	.	.	.	.	(16aa-X	.	.
8FFJ	.	8fJ	.	8a-J	.	16ff)	.	.
.	.	.	.	.	.	(16cccJJ	.	.
4r	.	(8E-XL	.	(8gL	.	16eee-XLL)	.	V/III
.	.	.	.	.	.	(16bb-	.	.
.	.	16FL	.	16a-L	.	16gg)	.	.
.	.	16GJJ)	.	16b-JJ)	.	16eee-'JJ	.	.
=212	=212	=212	=212	=212	=212	=212	=212	=212
4r	.	8A-X'L	.	8cc'L	.	16eee-X'LL	.	III
.	.	.	.	.	.	(16ccc	.	.
.	.	8A-'J	.	8cc'J	.	16aa-X)	.	.
.	.	.	.	.	.	16eee-'JJ	.	.
(8EE-XL	.	(8GL	.	8e-XL 8dd-X	.	16eee-'LL	.	V7/III
.	.	.	.	.	.	(16ddd-X	.	.
16FFL	.	16A-L	.	8e-J 8dd-	.	16bb-)	.	.
16GGJJ)	.	16B-JJ)	.	.	.	16eee-'JJ	.	.
=213	=213	=213	=213	=213	=213	=213	=213	=213
8AA-XL	.	8cL	.	8e-XL 8cc	.	16eee-X'LL	.	III
.	.	.	.	.	.	(16ccc	.	.
8AA-J	.	8cJ	.	8e-J 8cc	.	16aa-X)	.	.
.	.	.	.	.	.	16eee-'JJ	.	.
(8DDL	.	(8DL	.	(8f#XL	.	16dddn'LL	.	I.V7/ii
.	.	.	.	.	.	(16ccc	.	.
16EEL	.	16EL	.	16gL	.	16aan)	.	.
16FF#XJJ)	.	16F#XJJ)	.	16anJJ)	.	16ddd'JJ	.	V6/ii
=214	=214	=214	=214	=214	=214	=214	=214	=214
(8GGL	sf	[4G	sf	2d 2bn	sf	16ddd'LL	sf	V7/V
.	.	.	.	.	.	(16bbn	.	.
16BBnL	.	.	.	.	.	16gg)	.	.
16DJJ	.	.	.	.	.	16fff'JJ	.	.
8G)	.	(8GL]	.	.	.	(16fffLL	.	.
.	.	.	.	.	.	16ddd)	.	.
8r	.	16BnL	.	.	.	(16ddd	.	.
.	.	16dJJ	.	.	.	16fffJJ)	.	.
=215	=215	=215	=215	=215	=215	=215	=215	=215
!	!	!	!LO:DY:a	!	!	!	!	!
2r	.	4g)	sf	(8gL	.	(16fffLL	.	.
.	.	.	.	.	.	16ddd)	.	.
.	.	.	.	8bnJ	.	(16ddd	.	.
.	.	.	.	.	.	16fffJJ)	.	.
.	.	4r	.	8ddL	.	(16fffLL	.	.
.	.	.	.	.	.	16ddd)	.	.
.	.	.	.	8ffJ)	.	(16gg	.	.
.	.	.	.	.	.	16gggJJ)	.	.
=216	=216	=216	=216	=216	=216	=216	=216	=216
!	!LO:DY:a	!	!	!	!	!	!	!
!	!LO:DY:a	!	!	!	!	!	!	!
(8CCL	sf sf	[4C	.	[2cc [2ee	.	(16gggLL	sf	V
.	.	.	.	.	.	16eee)	.	.
16EEL	.	.	.	.	.	(16eee	.	.
16GGJJ	.	.	.	.	.	16cccJJ)	.	.
4C)	.	(8CL]	.	.	.	(16cccLL	.	.
.	.	.	.	.	.	16gg)	.	.
.	.	16EL	.	.	.	(16gg	.	.
.	.	16GJJ	.	.	.	16bb-JJ)	.	.
=217	=217	=217	=217	=217	=217	=217	=217	=217
(8cL	>	8c)	.	4cc] 4ee]	.	(16bb-LL	>	V7
.	.	.	.	.	.	16gg)	.	.
8eJ	.	8r	.	.	.	(16gg	.	.
.	.	.	.	.	.	16bb-JJ)	.	.
8gL	.	4r	.	4r	.	(16bb-LL	.	.
.	.	.	.	.	.	16gg)	.	.
8b-J)	]]	.	.	.	.	(16cc	.	.
.	.	.	.	.	.	16cccJJ)	]]	.
=218	=218	=218	=218	=218	=218	=218	=218	=218
!LO:TX:b:i:t=dolce	!	!	!LO:DY:a	!	!	!	!	!
(4a	.	8r	p	8r	.	(16cccLL	.	I
.	.	.	.	.	.	16cc)	.	.
.	.	8F	p	8A	p	(16cc	.	.
.	.	.	.	.	.	16cccJJ)	.	.
4e	.	8r	.	8r	.	(16cccLL	.	V43
.	.	.	.	.	.	16cc)	.	.
.	.	8G	.	8B-	.	(16cc	.	.
.	.	.	.	.	.	16cccJJ)	.	.
=219	=219	=219	=219	=219	=219	=219	=219	=219
4f	.	8r	.	8r	.	(16cccLL	.	I6
.	.	.	.	.	.	16cc)	.	.
.	.	8A	.	8c	.	(16cc	.	.
.	.	.	.	.	.	16cccJJ)	.	.
4f#X	.	8r	.	8r	.	(16cccLL	.	#viio65/ii
.	.	.	.	.	.	16cc)	.	.
.	.	8A	.	8e-X	.	(16cc	.	.
.	.	.	.	.	.	16cccJJ)	.	.
=220	=220	=220	=220	=220	=220	=220	=220	=220
4g	.	8r	.	8r	.	(16cccLL	.	V2
.	.	.	.	.	.	16cc)	.	.
.	.	8B-	.	8e	.	(16cc	.	.
.	.	.	.	.	.	16cccJJ)	.	.
4a	.	8r	.	8r	.	(16cccLL	.	#viio6/ii
.	.	.	.	.	.	16cc)	.	.
.	.	8A	.	8f#X	.	(16cc	.	.
.	.	.	.	.	.	16cccJJ)	.	.
=221	=221	=221	=221	=221	=221	=221	=221	=221
2b-)	.	8r	.	8r	.	(16cccLL	.	V43
.	.	.	.	.	.	16cc)	.	.
.	.	8G	.	8g	.	(16cc	.	.
.	.	.	.	.	.	16cccJJ)	.	.
.	.	8r	.	8r	.	(16cccLL	.	.
.	.	.	.	.	.	16cc)	.	.
.	.	8Fn	.	8g	.	(16cc	.	V65
.	.	.	.	.	.	16cccJJ)	.	.
=222	=222	=222	=222	=222	=222	=222	=222	=222
(4b-	.	8r	<	8r	<	(16cccLL	.	.
.	.	.	.	.	.	16cc)	.	.
.	.	8E	.	8g	.	(16cc	.	.
.	.	.	.	.	.	16cccJJ)	.	.
4cc	.	8r	.	8r	.	(16cccLL	.	.
.	.	.	.	.	.	16cc)	.	.
.	.	8D	.	8a	.	(16cc	.	.
.	.	.	.	.	.	16cccJJ)	.	.
=223	=223	=223	=223	=223	=223	=223	=223	=223
4dd	.	8r	.	8r	.	(16cccLL	.	V7
.	.	.	.	.	.	16cc)	.	.
.	.	8C	.	8b-	.	(16cc	.	.
.	.	.	.	.	.	16cccJJ)	.	.
4e	.	8r	.	8r	.	(16cccLL	.	V43
.	.	.	.	.	.	16cc)	.	.
.	.	8B-	.	8G	.	(16cc	.	.
.	.	.	.	.	.	16cccJJ)	.	.
=224	=224	=224	=224	=224	=224	=224	=224	=224
4f	.	8r	.	8r	.	(16cccLL	.	I6
.	.	.	.	.	.	16cc)	.	.
.	.	8A	[	8c	[	(16cc	.	.
.	.	.	.	.	.	16cccJJ)	.	.
4g	.	8r	>	8r	>	(16cccLL	.	V43
.	.	.	.	.	.	16cc)	.	.
.	.	8G	.	8e	.	(16cc	.	.
.	.	.	.	.	.	16cccJJ)	.	.
=225	=225	=225	=225	=225	=225	=225	=225	=225
4a-X	.	8r	.	8r	.	(16cccLL	.	I
.	.	.	.	.	.	16cc)	.	.
.	.	8F	.	8f	.	(16cc	.	.
.	.	.	.	.	.	16cccJJ)	.	.
4g)	.	8r	.	8r	.	(16bb-LL	.	V7
.	.	.	.	.	.	16cc)	.	.
.	.	8C	]]	8e	]]	(16cc	.	.
.	.	.	.	.	.	16bb-JJ)	.	.
=226	=226	=226	=226	=226	=226	=226	=226	=226
2r	.	8C 8c	.	(4a-X	.	(4aa-X	.	i.V[i64
.	.	4C 4c	.	.	.	.	.	.
.	.	.	.	4e	.	4ee	.	V
.	.	[8C [8c	.	.	.	.	.	.
=227	=227	=227	=227	=227	=227	=227	=227	=227
(4AA-X	.	8C] 8c]	.	4f	.	4ff	.	i6
.	.	4C 4c	.	.	.	.	.	.
4EE-X	.	.	.	4g	.	4gg	.	v6
.	.	[8C [8c	.	.	.	.	.	.
=228	=228	=228	=228	=228	=228	=228	=228	=228
4FF	.	8C] 8c]	.	4a-X	.	4aa-X	.	i
.	.	4C 4c	.	.	.	.	.	.
4FF#X	.	.	.	4an	.	4aan	.	#viio2/iv
.	.	[8C [8c	.	.	.	.	.	.
=229	=229	=229	=229	=229	=229	=229	=229	=229
4GG	.	8C] 8c]	.	2b-)	.	2bb-)	.	V43
.	.	4C 4c	.	.	.	.	.	.
4AA-X	.	.	.	.	.	.	.	.
.	.	[8C [8c	<	.	.	.	.	.
=230	=230	=230	=230	=230	=230	=230	=230	=230
2BB-)	<	8C] 8c]	.	(4b-	<	(4bb-	<	V2
.	.	4C 4c	.	.	.	.	.	.
.	.	.	.	4cc	.	4ccc	.	.
.	.	[8C [8c	.	.	.	.	.	.
=231	=231	=231	=231	=231	=231	=231	=231	=231
(4BB-	.	8C] 8c]	.	4dd-X	.	4ddd-X	.	iv
.	.	4C 4c	.	.	.	.	.	.
4C	.	.	.	4e	.	4ee	.	V
.	.	[8C [8c	.	.	.	.	.	.
=232	=232	=232	=232	=232	=232	=232	=232	=232
4D-X	.	8C] 8c]	.	4f	.	4ff	.	VI
.	.	4C 4c	.	.	.	.	.	.
4EE	[[	.	.	4g	[[	4gg	[[	V6
.	.	[8C [8c	[[	.	.	.	.	.
=233	=233	=233	=233	=233	=233	=233	=233	=233
!LO:TX:b:i:t=dim.	!	!LO:TX:b:i:t=dim.	!	!LO:TX:b:i:t=dim.	!	!LO:TX:b:i:t=dim.	!	!
4FF	.	8C] 8c]	.	[2a-X)	.	[2aa-X)	.	V43/VI
.	.	4C	.	.	.	.	.	.
4EE-X	.	.	.	.	.	.	.	.
.	.	8G-X	.	.	.	.	.	.
=234	=234	=234	=234	=234	=234	=234	=234	=234
[2DD-X)	pp	[2F	pp	2a-]	pp	(4aa-]	pp	VI
.	.	.	.	.	.	8eeL	.	.
.	.	.	.	.	.	16ffL	.	.
.	.	.	.	.	.	16ggJJ)	.	.
=235	=235	=235	=235	=235	=235	=235	=235	=235
2DD-_	.	(4F]	.	[2Bn	.	8aa-X'L	.	.Ger6
.	.	.	.	.	.	8aa-'J	.	.
.	.	8EL	.	.	.	8gg'L	.	.
.	.	16FL	.	.	.	8gg'J	.	.
.	.	16GJJ)	.	.	.	.	.	.
=236	=236	=236	=236	=236	=236	=236	=236	=236
2DD-]	.	8A-X'L	.	2B]	.	8ff'L	.	.
.	.	8A-'J	.	.	.	8ff'J	.	.
.	.	8G'L	.	.	.	(8eeL	.	.
.	.	8G'J	.	.	.	16ffL	.	.
.	.	.	.	.	.	16ggJJ)	.	.
=237	=237	=237	=237	=237	=237	=237	=237	=237
!	!LO:DY:a	!	!LO:DY:a	!	!	!	!	!
16CC'LL	ff ff	2F	ff	2c 2a	.	2aa	ff	I.V(64)
16DD'	.	.	.	.	.	.	.	.
16EE'	.	.	.	.	.	.	.	.
16FF'JJ	.	.	.	.	.	.	.	.
16GG'LL	.	.	.	.	.	.	.	.
16AA'	.	.	.	.	.	.	.	.
16BB-'	.	.	.	.	.	.	.	.
16C'JJ	.	.	.	.	.	.	.	.
=238	=238	=238	=238	=238	=238	=238	=238	=238
2BB-	.	2F	.	16d'LL	.	2B- 2d	.	IV
.	.	.	.	16e'	.	.	.	.
.	.	.	.	16f'	.	.	.	.
.	.	.	.	16g'JJ	.	.	.	.
.	.	.	.	16a'LL	.	.	.	.
.	.	.	.	16b-'	.	.	.	.
.	.	.	.	16cc'	.	.	.	.
.	.	.	.	16dd'JJ	.	.	.	.
=239	=239	=239	=239	=239	=239	=239	=239	=239
2GG	.	16C'LL	.	16bb-LL	.	16e'LL	.	V43
.	.	16D'	.	16aa	.	16f'	.	.
.	.	16E'	.	16gg	.	16g'	.	.
.	.	16F'JJ	.	16ffJJ	.	16a'JJ	.	.
.	.	16G'LL	.	16eeLL	.	16b-'LL	.	.
.	.	16A'	.	16dd	.	16cc'	.	.
.	.	16B-'	.	16cc	.	16dd'	.	.
.	.	16c'JJ	.	16b-JJ	.	16eeJJ	.	.
=240	=240	=240	=240	=240	=240	=240	=240	=240
16FLL	.	16aLL	.	16aLL	.	16ffLL	.	I
16E	.	16g	.	16b-	.	16gg	.	.
16D	.	16f	.	16cc	.	16aa	.	.
16CJJ	.	16eJJ	.	16ddJJ	.	16bb-JJ	.	.
16BB-LL	.	16dLL	.	16eeLL	.	16cccLL	.	.
16AA	.	16c	.	16ff	.	16ddd	.	.
16GG	.	16B-	.	16gg	.	16eee	.	.
16FFJJ	.	16AJJ	.	16aaJJ	.	16fffJJ	.	.
=241	=241	=241	=241	=241	=241	=241	=241	=241
8BB-	.	8f	.	8bb-	.	8ddd	.	IV
8r	.	8r	.	8r	.	8r	.	.
8BB-	.	8B-	.	8f 8dd 8bb-	.	8b- 8ff 8ddd	.	.
8r	.	8r	.	8r	.	8r	.	.
=242	=242	=242	=242	=242	=242	=242	=242	=242
8C	.	8c	.	8f 8cc 8aa	.	8a 8ff 8ccc	.	V(64)
8r	.	8r	.	8r	.	8r	.	.
8CC	.	8C 8c	.	8g 8b-	.	8g 8b- 8ee	.	V7\\
8r	.	8r	.	8r	.	8r	.	.
=243	=243	=243	=243	=243	=243	=243	=243	=243
4r	.	2r	.	2r	.	2r	.	V6
!LO:TX:a:i:t=poco rit.	!	!	!	!	!	!	!	!
(8EEL	pp	.	.	.	.	.	.	.
16FFL	.	.	.	.	.	.	.	.
16GGJJ	.	.	.	.	.	.	.	.
=244	=244	=244	=244	=244	=244	=244	=244	=244
!	!	!LO:TX:a:i:t=poco rit.	!	!LO:TX:a:i:t=poco rit.	!	!LO:TX:a:i:t=poco rit.	!	!
8AA-XL)	.	4r	.	4r	.	4r	.	#viio2/V
8AA-J	.	.	.	.	.	.	.	.
!	!	!	!LO:DY:a	!	!	!	!	!
8AA-L	.	(8FL	pp pp	8bnL	.	(8ddL	.	.
8AA-J	.	16EL	.	8bJ	.	16eeL	pp	.
.	.	16DJJ)	.	.	.	16ffJJ)	.	.
=245	=245	=245	=245	=245	=245	=245	=245	=245
!LO:TX:a:i:t=a tempo	!	!LO:TX:b:i:t=cresc.	!	!LO:TX:a:i:t=a tempo	!	!LO:TX:a:i:t=a tempo	!	!
!LO:TX:b:i:t=cresc.	!	!LO:TX:a:i:t=a tempo	!	!LO:TX:b:i:t=cresc.	!	!LO:TX:b:i:t=cresc.	!	!
8.AAL	.	8.CL	.	16cc'LL	.	16ff'LL	.	I6
.	.	.	.	16aa'J	.	16ccc'J	.	.
.	.	.	.	[8aaJ	.	[8cccJ	.	.
16A'Jk	.	16c'Jk	.	.	.	.	.	.
8.AL	.	8.cL	.	16aaLL]	.	16cccLL]	.	.
.	.	.	.	16aa'J	.	16ccc'J	.	.
.	.	.	.	[8aaJ	.	[8cccJ	.	.
16c'Jk	.	16f'Jk	.	.	.	.	.	.
=246	=246	=246	=246	=246	=246	=246	=246	=246
8.cL	.	8.fL	.	16aaLL]	.	16cccLL]	.	I64
.	.	.	.	16aa'J	.	16ccc'J	.	.
.	.	.	.	[8aaJ	.	[8cccJ	.	.
16f'Jk	.	16a'Jk	.	.	.	.	.	.
(16fLL	.	(16aLL	.	16aaLL]	.	16cccLL]	.	I
16c)	.	16f)	.	16aa	.	16ccc	.	.
16A'	.	16c'	.	16aa	.	16ccc	.	.
16F'JJ	.	16A'JJ	.	16aaJJ	.	16cccJJ	.	.
=247	=247	=247	=247	=247	=247	=247	=247	=247
8.GL	.	8.B-L	.	16ee'LL	.	16ccc'LL	.	V43
.	.	.	.	16bb-'J	.	16ccc'J	.	.
.	.	.	.	[8bb-J	.	[8cccJ	.	.
16B-'Jk	.	16e'Jk	.	.	.	.	.	.
8.B-L	.	8.eL	.	16bb-LL]	.	16cccLL]	.	.
.	.	.	.	16bb-'J	.	16ccc'J	.	.
.	.	.	.	[8bb-J	.	[8cccJ	.	.
16e'Jk	.	16g'Jk	.	.	.	.	.	.
=248	=248	=248	=248	=248	=248	=248	=248	=248
8.eL	.	8.gL	.	16bb-LL]	.	16cccLL]	.	V65
.	.	.	.	16bb-J	.	16cccJ	.	.
.	.	.	.	[8bb-J	.	[8cccJ	.	.
16gJk	.	16b-Jk	.	.	.	.	.	.
(16gLL	.	(16b-LL	.	16bb-LL]	.	16cccLL]	.	.
16e)	.	16g)	.	16bb-	.	16ccc	.	.
16B-'	.	16e'	.	16bb-	.	16ccc	.	.
16G'JJ	.	16B-'JJ	.	16bb-JJ	.	16cccJJ	.	.
=249	=249	=249	=249	=249	=249	=249	=249	=249
!	!LO:DY:a	!	!	!	!	!	!	!
16F'LL	f f	16c'LL	.	8.aaL	f	8.cccL	f	I
16f'J	.	16a'J	.	.	.	.	.	.
[8fJ	.	[8aJ	.	.	.	.	.	.
.	.	.	.	16ccc'Jk	.	16fff'Jk	.	.
16fLL]	.	16aLL]	.	8.cccL	.	8.fffL	.	.
16f'J	.	16a'J	.	.	.	.	.	.
[8fJ	.	[8aJ	.	.	.	.	.	.
.	.	.	.	16fff'Jk	.	16aaa'Jk	.	.
=250	=250	=250	=250	=250	=250	=250	=250	=250
16fLL]	.	16aLL]	.	8.fffL	.	8.aaaL	.	.
16f'J	.	16a'J	.	.	.	.	.	.
[8fJ	.	[8aJ	.	.	.	.	.	.
.	.	.	.	16aaa'Jk	.	16cccc'Jk	.	.
16fLL]	.	16aLL]	.	(16aaaLL	.	(16ccccLL	.	.
16f	.	16a	.	16fff)	.	16aaa)	.	.
16f	.	16a	.	16ccc'	.	16fff'	.	.
16fJJ	.	16aJJ	.	16aa'JJ	.	16ccc'JJ	.	.
=251	=251	=251	=251	=251	=251	=251	=251	=251
16gLL	.	16b-LL	.	8.ggL	.	8.bb-L	.	V7
16cJ	.	16gJ	.	.	.	.	.	.
[8cJ	.	8.gJ	.	.	.	.	.	.
.	.	.	.	16bb-'Jk	.	16eee'Jk	.	.
16cLL]	.	.	.	8.bb-L	.	8.eeeL	.	.
16cJ	.	16gKL	.	.	.	.	.	.
[8cJ	.	[8gJ	.	.	.	.	.	.
.	.	.	.	16eee'Jk	.	16ggg'Jk	.	.
=252	=252	=252	=252	=252	=252	=252	=252	=252
16cLL]	.	16gLL]	.	8.eeeL	.	8.gggL	.	.
16cJ	.	16gJ	.	.	.	.	.	.
[8cJ	.	[8gJ	.	.	.	.	.	.
.	.	.	.	16ggg'Jk	.	16bbb-'Jk	.	.
16cLL]	.	16gLL]	.	(16gggLL	.	(16bbb-LL	.	.
16c	.	16g	.	16eee)	.	16ggg)	.	.
16c	.	16g	.	16bb-	.	16eee'	.	.
16cJJ	.	16gJJ	.	16ggJJ	.	16bb-'JJ	.	.
=253	=253	=253	=253	=253	=253	=253	=253	=253
16f'LL	p	16a'LL	p	8.ffL	p	8.aaL	p	I
16f'J	.	16a'J	.	.	.	.	.	.
[8cJ	.	[8gJ	.	.	.	.	.	.
.	.	.	.	16gg'Jk	.	16eee'Jk	.	V
16cLL]	.	16gLL]	.	8.aaL	.	8.fffL	.	I
16f'J	.	16a'J	.	.	.	.	.	.
[8dJ	.	[8ccJ	.	.	.	.	.	.
.	.	.	.	16aa'Jk	.	16fff#X'Jk	.	V7/ii
=254	=254	=254	=254	=254	=254	=254	=254	=254
16dLL]	.	16ccLL]	.	8.bb-L	.	8.gggL	.	ii
16g'J	.	16b-'J	.	.	.	.	.	.
[8dJ	.	[8ccJ	.	.	.	.	.	.
.	.	.	.	16aaJk	.	16fff#XJk	.	V7/ii
16dLL]	.	16ccLL]	.	8.bb-L	.	8.gggL	.	ii
16gJ	.	16b-J	.	.	.	.	.	.
8cJ	.	8b-J	.	.	.	.	.	.
.	.	.	.	16ggJk	.	16eeeJk	.	V7
=255	=255	=255	=255	=255	=255	=255	=255	=255
!LO:TX:b:i:t=cresc.	!	!	!	!LO:TX:b:i:t=cresc.	!	!LO:TX:b:i:t=cresc.	!	!
16fLL	.	16aLL	.	8.ffL	.	8.aaaL	.	I
16FJ	.	16AJ	.	.	.	.	.	.
!	!	!LO:TX:b:i:t=cresc.	!	!	!	!	!	!
[8CJ	.	[8B-J	.	.	.	.	.	.
.	.	.	.	16eeJk	.	16gggJk	.	V7
16CLL]	.	16B-LL]	.	8.ffL	.	8.aaaL	.	I
16FJ	.	16AJ	.	.	.	.	.	.
[8DJ	.	[8cJ	.	.	.	.	.	.
.	.	.	.	16ff#XJk	.	16aaaJk	.	V7/ii
=256	=256	=256	=256	=256	=256	=256	=256	=256
16DLL]	.	16cLL]	.	8.ggL	.	8.bbb-L	.	ii
16GJ	.	16B-J	.	.	.	.	.	.
[8DJ	.	[8cJ	.	.	.	.	.	.
.	.	.	.	16ff#XJk	.	16aaaJk	.	V7/ii
16DLL]	.	16cLL]	.	8.ggL	.	8.bbb-L	.	ii
16GJ	.	16B-J	.	.	.	.	.	.
[8CJ	.	[8B-J	.	.	.	.	.	.
.	.	.	.	16eeJk	.	16gggJk	.	V7
=257	=257	=257	=257	=257	=257	=257	=257	=257
16CLL]	.	16B-LL]	.	8.aaL	.	8.aaaL	.	I
16FJ	.	16AJ	.	.	.	.	.	.
[8EJ	.	[8GJ	.	.	.	.	.	.
.	.	.	.	16cccJk	.	16ccccJk	.	.
16ELL]	.	16GLL]	.	8.ffnL	.	8.fffL	.	vi
16DJ	.	16FJ	.	.	.	.	.	.
[8CJ	.	[8EJ	.	.	.	.	.	.
.	.	.	.	16aaJk	.	16aaaJk	.	.
=258	=258	=258	=258	=258	=258	=258	=258	=258
16CLL]	.	16ELL]	.	8.ddL	.	8.dddL	.	ii
16BB-J	.	16DJ	.	.	.	.	.	.
[8GGJ	.	[8B-J	.	.	.	.	.	.
.	.	.	.	16ggJk	.	16gggJk	.	.
16GGLL]	.	16B-LL]	.	8.ffL	.	8.fffL	.	V
16CJ	.	16AJ	.	.	.	.	.	.
[8CCJ	.	[8GJ	.	.	.	.	.	.
.	.	.	.	16eeJk	.	16eeeJk	.	.
=259	=259	=259	=259	=259	=259	=259	=259	=259
!	!LO:DY:a	!	!	!	!	!	!	!
16CCKL]	f f	16GKL]	.	16aa'KL	f	16aaa'KL	f	I\\
8FF	.	8A	.	8.cccJ	sf	8.ccccJ	sf	.
8EE	.	8G	.	.	.	.	.	.
.	.	.	.	16ff'KL	.	16fff'KL	.	vi
8DD	.	8F	.	8.aaJ	.	8.aaaJ	.	.
[16CCJk	.	[16EJk	.	.	.	.	.	.
=260	=260	=260	=260	=260	=260	=260	=260	=260
16CCKL]	.	16EKL]	.	16dd'KL	.	16ddd'KL	.	ii
8BB-	.	8D	.	8.ggJ	.	8.gggJ	.	.
[16GGJk	.	[16GJk	.	.	.	.	.	.
16GGKL]	.	16GKL]	.	16ff'KL	.	16fff'KL	.	V
8C	.	8c	.	8.eeJ	.	8.eeeJ	.	.
16CCJk	.	16CJk	.	.	.	.	.	.
=261	=261	=261	=261	=261	=261	=261	=261	=261
!	!LO:DY:a	!	!	!	!	!	!	!
8.DDL	ff ff	8.GL 8.f	.	8.fL 8.bn	ff	16fffLL	ff	V43/V
.	.	.	.	.	.	16fJ	.	.
.	.	.	.	.	.	[8fJ	.	.
16DDJk	.	16GJk 16f	.	16fJk 16b	.	.	.	.
8.DDL	.	8.GL 8.f	.	8.fL 8.b	.	16fLL]	.	.
.	.	.	.	.	.	16bnJ	.	.
.	.	.	.	.	.	[8bJ	.	.
16DDJk	.	16GJk 16f	.	16fJk 16b	.	.	.	.
=262	=262	=262	=262	=262	=262	=262	=262	=262
16DDLL	.	16GLL 16f	.	16fLL 16bn	.	16bLL]	.	.
16DD	.	16G 16f	.	16f 16b	.	16ff	.	.
16DD	.	16G 16f	.	16f 16b	.	16ff	.	.
16DDJJ	.	16GJJ 16f	.	16fJJ 16b	.	16bbnJJ	.	.
16DDLL	.	16GLL 16f	.	16fLL 16b	.	16bbLL	.	.
16DD	.	16G 16f	.	16f 16b	.	16fff	.	.
16DD	.	16G 16f	.	16f 16b	.	16fff	.	.
16DDJJ	.	16GJJ 16f	.	16fJJ 16b	.	16fffJJ	.	.
=263	=263	=263	=263	=263	=263	=263	=263	=263
2DD;	.	2G;	.	2f; 2bn	.	2fff;	.	.
=264	=264	=264	=264	=264	=264	=264	=264	=264
!	!LO:DY:a	!	!LO:DY:a	!	!	!	!	!
8.CCL	ff ff	8.CL 8.B-	ff	8.gL 8.ee	.	16b-XLL	ff	V7\\
.	.	.	.	.	.	16B-J	.	.
.	.	.	.	.	.	[8B-J	.	.
16CCJk	.	16CJk 16B-	.	16gJk 16ee	.	.	.	.
8.CCL	.	8.CL 8.B-	.	8.gL 8.ee	.	16B-LL]	.	.
.	.	.	.	.	.	16eJ	.	.
.	.	.	.	.	.	[8eJ	.	.
16CCJk	.	16CJk 16B-	.	16gJk 16ee	.	.	.	.
=265	=265	=265	=265	=265	=265	=265	=265	=265
16CCLL	.	16CLL 16B-	.	16gLL 16ee	.	16eLL]	.	.
16CC	.	16C 16B-	.	16g 16ee	.	16b-	.	.
16CC	.	16C 16B-	.	16g 16ee	.	16b-	.	.
16CCJJ	.	16CJJ 16B-	.	16gJJ 16ee	.	16eeJJ	.	.
16CCLL	.	16CLL 16B-	.	16gLL 16ee	.	16eeLL	.	.
16CC	.	16C 16B-	.	16g 16ee	.	16bb-	.	.
16CC	.	16C 16B-	.	16g 16ee	.	16bb-	.	.
16CCJJ	.	16CJJ 16B-	.	16gJJ 16ee	.	16bb-JJ	.	.
=266	=266	=266	=266	=266	=266	=266	=266	=266
4CC;	.	4C; 4B-	.	4g; 4ee	.	8bb-;	.	.
.	.	.	.	.	.	16qqgg;/LL	.	.
.	.	.	.	.	.	16qqee;/	.	.
.	.	.	.	.	.	16qqcc;/	.	.
.	.	.	.	.	.	16qqb-;/	.	.
.	.	.	.	.	.	16qqg;/	.	.
.	.	.	.	.	.	16qqe;/	.	.
.	.	.	.	.	.	16qqc;/JJ	.	.
.	.	.	.	.	.	8B-;	.	.
4r	.	4r	.	(8ccL	pp	4r	.	I
.	.	.	.	16ddL	.	.	.	.
.	.	.	.	16aJJ)	.	.	.	.
=267	=267	=267	=267	=267	=267	=267	=267	=267
2r	.	2r	.	8b-'L	.	2r	.	V/ii
.	.	.	.	8g'J	.	.	.	.
.	.	.	.	8f#X'L	.	.	.	.
.	.	.	.	8d'J	.	.	.	.
=268	=268	=268	=268	=268	=268	=268	=268	=268
2r	.	2r	.	(8gL	.	4r	.	ii
.	.	.	.	8b-J)	.	.	.	.
.	.	.	.	(8dL	.	(8cccL	pp	V7/ii
.	.	.	.	16eL	.	16dddL	.	.
.	.	.	.	16f#XJJ)	.	16aaJJ)	.	.
=269	=269	=269	=269	=269	=269	=269	=269	=269
2r	.	2r	.	8g'L	.	8bb-'L	.	ii
.	.	.	.	8g'J	.	8gg'J	.	.
.	.	.	.	8a'L	.	8ff#X'L	.	V64/ii
.	.	.	.	8a'J	.	8dd'J	.	.
=270	=270	=270	=270	=270	=270	=270	=270	=270
2r	.	4r	.	4b-	.	(8ggL	.	ii6
.	.	.	.	.	.	8bb-J)	.	.
.	.	(8cL	pp	4r	.	(8ddL	.	V43/ii
.	.	16dL	.	.	.	16eeL	.	.
.	.	16AJJ)	.	.	.	16ff#XJJ)	.	.
=271	=271	=271	=271	=271	=271	=271	=271	=271
2r	.	8B-'L	.	2r	.	8gg'L	.	ii6
.	.	8G'J	.	.	.	8gg'J	.	ii
.	.	8F#X'L	.	.	.	8aa'L	.	V/ii
.	.	8D'J	.	.	.	8aa'J	.	.
=272	=272	=272	=272	=272	=272	=272	=272	=272
4r	.	(8GL	.	2r	.	4bb-	.	ii
.	.	8B-J)	.	.	.	.	.	.
(8BB-L	pp	(8CL	.	.	.	4r	.	viio6
16CL	.	16DL	.	.	.	.	.	.
16GGJJ)	.	16EJJ)	.	.	.	.	.	.
=273	=273	=273	=273	=273	=273	=273	=273	=273
8AA'L	.	8F'L	.	2r	.	2r	.	V
8FF'J	.	8F'J	.	.	.	.	.	.
8EE'L	.	8G'L	.	.	.	.	.	.
8CC'J	.	8G'J	.	.	.	.	.	.
=274	=274	=274	=274	=274	=274	=274	=274	=274
(8FFL	.	4A	.	4r	.	2r	.	V7
8AAJ)	.	.	.	.	.	.	.	.
(8CCL	.	4r	.	(8b-L	pp	.	.	.
16DDL	.	.	.	16ccL	.	.	.	.
16EEJJ)	.	.	.	16gJJ)	.	.	.	.
=275	=275	=275	=275	=275	=275	=275	=275	=275
8FF'L	.	4r	.	8a-X'L	.	2r	.	V43
8FF'J	.	.	.	8f'J	.	.	.	.
8GG'L	.	(8CL	.	8e'L	.	.	.	.
8GG'J	.	16DL	.	8c'J	.	.	.	.
.	.	16EJJ)	.	.	.	.	.	.
=276	=276	=276	=276	=276	=276	=276	=276	=276
(4AA-X	.	8F'L	.	(8fL	.	4r	.	i6
.	.	8F'J	.	8a-XJ)	.	.	.	.
8BB-L	.	8G'L	.	4r	.	(8ccL	.	V2
16CL	.	8G'J	.	.	.	16ddL	.	.
16GGJJ)	.	.	.	.	.	16eeJJ)	.	.
=277	=277	=277	=277	=277	=277	=277	=277	=277
8AA-X'L	.	8c'L	.	4r	.	8ff'L	.	i6
8FF'J	.	8A-X'J	.	.	.	8ff'J	.	.
8EE-X'L	.	8B-'L	.	(8d-XL	.	8gg'L	.	V7/III
8EE-'J	.	[8E-XJ	.	16e-XL	.	8gg'J	.	.
.	.	.	.	16B-JJ)	.	.	.	.
=278	=278	=278	=278	=278	=278	=278	=278	=278
8AA-XL	.	4E-]	.	(8cL	.	8aa-XL	.	III
8AA-J	.	.	.	8A-XJ)	.	8aa-J	.	.
8FFL	.	[4F	.	(8e-XL	.	8aanL	.	V7/iv
8FFJ	.	.	.	16fL	.	8aaJ	.	.
.	.	.	.	16cJJ)	.	.	.	.
=279	=279	=279	=279	=279	=279	=279	=279	=279
8BB-L	.	4F]	.	(8d-XL	.	8bb-L	.	iv
8BB-J	.	.	.	8B-J)	.	8bb-J	.	.
(8FFL	.	(8FL	.	8g'L	.	8bbnL	.	V2/V
16GGL	.	16GL	.	8bn'J 8gg	.	8bbJ	.	V43/V
16DDJJ)	.	16DJJ)	.	.	.	.	.	.
=280	=280	=280	=280	=280	=280	=280	=280	=280
8EE	.	(8EL	.	8cc'L 8gg	.	[4ccc	.	I.V[V6
[4.CC	.	16AL	.	[8ccJ	.	.	.	.
.	.	16EJJ	.	.	.	.	.	.
.	.	8FL	.	(8ccL]	.	(8cccL]	.	I
.	.	[8F#XJ)	.	16ddL	.	16dddL	.	V6/ii
.	.	.	.	16aJJ)	.	16aaJJ)	.	.
=281	=281	=281	=281	=281	=281	=281	=281	=281
2CC_	.	(8F#L]	.	[4b-	.	[4bb-	.	ii
.	.	16GL	.	.	.	.	.	.
.	.	16DJJ	.	.	.	.	.	.
.	.	8E-XL	.	(8b-L]	.	(8bb-L]	.	.bVII
.	.	[8EnJ)	.	16ccL	.	16cccL	.	V6
.	.	.	.	16gJJ)	.	16ggJJ)	.	.
=282	=282	=282	=282	=282	=282	=282	=282	=282
2CC_	.	(8EL]	.	4a	.	[4aa	.	I
.	.	16FL	.	.	.	.	.	.
.	.	16C#XJJ)	.	.	.	.	.	.
.	.	4DT	.	[4b-	.	(8aaL]	.	IV6
.	.	.	.	.	.	16bb-L	.	.
.	.	.	.	.	.	16ffJJ)	.	.
=283	=283	=283	=283	=283	=283	=283	=283	=283
8CCL]	.	4Et	.	8b-L]	.	8aa	.	viio(4)
8CJ	.	.	.	(8b-J	.	4gg	.	I
8r	.	4FT	.	8aL)	.	.	.	.
8C	.	.	.	(8aJ	.	[8ff	.	.
=284	=284	=284	=284	=284	=284	=284	=284	=284
8r	.	4GT	.	8gL)	.	8ff]	.	viio6(2)
8C	.	.	.	(8gJ	.	4ee	.	viio6
8r	.	4At	.	8fL)	.	.	.	.
8C	.	.	.	(8fJ	.	8dd	.	vi64
=285	=285	=285	=285	=285	=285	=285	=285	=285
!LO:TX:b:i:t=cresc.	!	!LO:TX:b:i:t=cresc.	!	!	!	!	!	!
8C'L	.	8B-'L	.	8e)	.	16cc'LL	.	V2
.	.	.	.	.	.	(16g	.	.
16r	.	16r	.	8r	.	16a)	.	.
16C'Jk	.	16E'Jk 16G	.	.	.	(16f#XJJ	.	.
8C'L	.	8E'L 8G	.	4r	.	16gLL)	.	V65
.	.	.	.	.	.	(16b-	.	.
16r	.	16r	.	.	.	16cc)	.	.
16C'Jk	.	16E'Jk 16G	.	.	.	(16aJJ	.	.
=286	=286	=286	=286	=286	=286	=286	=286	=286
8C'L	.	8E'L 8G	.	2r	.	16b-LL)	.	.
.	.	.	.	.	.	(16ee	.	.
16r	.	16r	.	.	.	16ff)	.	.
16C'Jk	.	16E'Jk 16G	.	.	.	(16ddJJ	.	.
8C'L	.	8E'L 8G	.	.	.	16eeLL)	.	.
.	.	.	.	.	.	(16ff#X	.	.
16r	.	16r	.	.	.	16gg)	.	.
16C'Jk	.	16E'Jk 16G	.	.	.	(16b-JJ	.	.
=287	=287	=287	=287	=287	=287	=287	=287	=287
8C'L	.	8F'L 8A	.	2r	.	16aLL)	.	I
.	.	.	.	.	.	(16a	.	.
16r	.	16r	.	.	.	16b-)	.	.
16C'Jk	.	16F'Jk 16A	.	.	.	(16gJJ	.	.
8C'L	.	8F'L 8A	.	.	.	16aLL)	.	.
.	.	.	.	.	.	(16cc	.	.
16r	.	16r	.	.	.	16dd)	.	.
16C'Jk	.	16F'Jk 16A	.	.	.	(16bnJJ	.	.
=288	=288	=288	=288	=288	=288	=288	=288	=288
8C'L	.	8F'L 8A	.	2r	.	16ccLL)	.	.
.	.	.	.	.	.	(16ff	.	.
16r	.	16r	.	.	.	16gg)	.	.
16C'Jk	.	16F'Jk 16A	.	.	.	(16eeJJ	.	.
8C'L	.	8F'L 8A	.	.	.	16ffLL)	.	.
.	.	.	.	.	.	(16gg#X	.	.
16r	.	16r	.	.	.	16aa)	.	.
16C'Jk	.	16F'Jk 16A	.	.	.	(16ccJJ	.	.
=289	=289	=289	=289	=289	=289	=289	=289	=289
8CL 8G	.	8B-L	.	16r	.	16b-LL)	.	V43
!	!	!	!	!LO:TX:a:i:t=cresc.	!	!	!	!
.	.	.	.	(16gLL	.	(16b-	.	.
16r	.	16r	.	16a)	.	16cc)	.	.
16CJk 16G	.	16B-Jk	.	(16f#XJJ	.	(16aJJ	.	.
8CL 8G	.	8B-L	.	16gLL)	.	16b-LL)	.	.
.	.	.	.	(16g	.	(16ee	.	.
16r	.	16r	.	16a)	.	16ff)	.	.
16CJk 16G	.	16B-Jk	.	(16f#JJ	.	(16dd#XJJ	.	.
=290	=290	=290	=290	=290	=290	=290	=290	=290
8CL 8G	.	8B-L	.	16gLL)	.	16eeLL)	.	.
.	.	.	.	(16ee	.	(16gg	.	.
16r	.	16r	.	16ff)	.	16aa)	.	.
16CJk 16G	.	16B-Jk	.	(16dd#XJJ	.	(16ff#XJJ	.	.
8CL 8G	.	8B-L	.	16eeLL)	.	16ggLL)	.	.
.	.	.	.	(16ff	.	(16aa	.	.
16r	.	16r	.	16gg)	.	16bb-)	.	.
16CJk 16G	.	16B-Jk	.	(16gJJ	.	(16b-JJ	.	.
=291	=291	=291	=291	=291	=291	=291	=291	=291
8CL 8A	.	8cL	.	16fLL)	.	16aLL)	.	I6
.	.	.	.	(16a	.	(16ff	.	.
16r	.	16r	.	16b-)	.	16gg)	.	.
16CJk 16A	.	16cJk	.	(16gJJ	.	(16eeJJ	.	.
8CL 8A	.	8cL	.	16aLL)	.	16ffLL)	.	.
.	.	.	.	(16ff	.	(16aa	.	.
16r	.	16r	.	16gg)	.	16bb-)	.	.
16CJk 16A	.	16cJk	.	(16eeJJ	.	(16ggJJ	.	.
=292	=292	=292	=292	=292	=292	=292	=292	=292
8CL 8A	.	8cL	.	16ffLL)	.	16aaLL)	.	.
.	.	.	.	(16aa	.	(16ccc	.	.
16r	.	16r	.	16bb-)	.	16ddd)	.	.
16CJk 16A	.	16cJk	.	(16gg#XJJ	.	(16bbnJJ	.	.
8CL 8A	.	8cL	.	16aaLL)	.	16cccLL)	.	.
.	.	.	.	16bb-'	.	16ddd'	.	.
16r	.	16r	.	16ggn'	.	16eee'	.	.
16CJk 16A	.	16cJk	.	16aa'JJ	.	16fff'JJ	.	.
=293	=293	=293	=293	=293	=293	=293	=293	=293
16CC'LL	f	8C	f	[2eet	f	[2ggT	f	V]
(16C	.	.	.	.	.	.	.	.
16D)	.	8r	.	.	.	.	.	.
(16BBnJJ	.	.	.	.	.	.	.	.
16C)	.	16r	.	.	.	.	.	.
16r	.	(16ELL	f	.	.	.	.	.
8r	.	16F)	.	.	.	.	.	.
.	.	(16DJJ	.	.	.	.	.	.
=294	=294	=294	=294	=294	=294	=294	=294	=294
16r	.	8E)	.	2ee]	.	2gg]	.	V6
(16GLL	f	.	.	.	.	.	.	.
16A)	.	8r	.	.	.	.	.	.
(16F#XJJ	.	.	.	.	.	.	.	.
16G)	.	16r	.	.	.	.	.	.
16r	.	(16B-LL	f	.	.	.	.	.
8r	.	16c)	.	.	.	.	.	.
.	.	(16AJJ	.	.	.	.	.	.
=295	=295	=295	=295	=295	=295	=295	=295	=295
[2CT	ff	[2B-T)	ff	[2ggT	ff	[2eeet	ff	V7
=296	=296	=296	=296	=296	=296	=296	=296	=296
2C]	.	2B-]	.	2gg]	.	2eee]	.	.
=297	=297	=297	=297	=297	=297	=297	=297	=297
(8FFL	ff	(8AL	ff	4ff	sf	4fff	sf	I
16GGL	.	16B-L	.	.	.	.	.	.
16AAJJ	.	16cJJ	.	.	.	.	.	.
8BB-L	.	8dL	.	4dd	sf	4ddd	sf	IV
16CL	.	16eL	.	.	.	.	.	.
16DJJ)	.	16fJJ)	.	.	.	.	.	.
=298	=298	=298	=298	=298	=298	=298	=298	=298
!	!	!	!LO:DY:a	!	!	!	!	!
(8EL	.	(8CL	sf	4cc	.	4ccc	sf	V6
16FL	.	16DL	.	.	.	.	.	.
16GJJ)	.	16EJJ)	.	.	.	.	.	.
(8AL	.	(8FL	.	4a	sf	4aa	sf	I6
16B-L	.	16GL	.	.	.	.	.	.
16cJJ)	.	16AJJ)	.	.	.	.	.	.
=299	=299	=299	=299	=299	=299	=299	=299	=299
4d-X	.	4B-	.	4g	.	4gg	.	iio6
[4c	sfp	[4C [4B-	sfp	[4g	sfp	(8eetL	sfp	V7
.	.	.	.	.	.	16ffL	.	.
.	.	.	.	.	.	16ggJJ)	.	.
=300	=300	=300	=300	=300	=300	=300	=300	=300
2c]	.	2C] 2B-]	.	2g]	.	(8ffL	.	.
.	.	.	.	.	.	16eeL	.	.
.	.	.	.	.	.	16ddJJ	.	.
.	.	.	.	.	.	8ccL	.	.
.	.	.	.	.	.	16ddL	.	.
.	.	.	.	.	.	16eeJJ)	.	.
=301	=301	=301	=301	=301	=301	=301	=301	=301
!	!	!	!	!	!LO:DY:a	!	!	!
4F	sf	4A	sf	8f	ff ff	16ff'LL	.	I
.	.	.	.	.	.	(16f	.	.
.	.	.	.	(16GLL	.	16g	.	.
.	.	.	.	16AJJ)	.	16aJJ)	.	.
4D	sf	4F	sf	(8B-TL	.	(8b-TL	.	IV6
.	.	.	.	16cL	.	16ccL	.	.
.	.	.	.	16dJJ)	.	16ddJJ)	.	.
=302	=302	=302	=302	=302	=302	=302	=302	=302
4C	sf	4c	sf	(8etL	.	(8eetL	.	V
.	.	.	.	16fL	.	16ffL	.	.
.	.	.	.	16gJJ)	.	16ggJJ)	.	.
4AA	sf	4A	sf	(8atL	.	(8aatL	.	I6
.	.	.	.	16b-L	.	16bb-L	.	.
.	.	.	.	16ccJJ)	.	16cccJJ)	.	.
=303	=303	=303	=303	=303	=303	=303	=303	=303
!	!	!	!LO:DY:a	!LO:TX:b:i:t=sempre	!	!LO:TX:b:i:t=sempre	!	!
4GG	sf	4G	f sf	4b- 4bb-	.	4ddd-X	f	iio
!	!	!	!	!	!	!LO:TX:a:t=	!	!
(8EEL	f	(8EL	f	[4b- [4gg	.	[4ccct	.	V65
!LO:TX:b:i:t=sempre	!	!LO:TX:b:i:t=sempre	!	!	!	!	!	!
16FFL	.	16FL	.	.	.	.	.	.
16GGJJ)	.	16GJJ)	.	.	.	.	.	.
=304	=304	=304	=304	=304	=304	=304	=304	=304
(8FFL	.	(8FL	.	2b-] 2gg]	.	2ccc_	.	V7
16EEL	.	16EL	.	.	.	.	.	.
16DDJJ	.	16DJJ	.	.	.	.	.	.
8CCL	.	8CL	.	.	.	.	.	.
16DDL	.	16DL	.	.	.	.	.	.
16EEJJ)	.	16EJJ)	.	.	.	.	.	.
=305	=305	=305	=305	=305	=305	=305	=305	=305
(8FFL	.	(8FL	.	(8aL 8ff	.	4ccc]	.	I
16GGL	.	16GL	.	16eeL	.	.	.	.
16AAJJ)	.	16AJJ)	.	16ddJJ)	.	.	.	.
(8BB-L	sf	(8B-L	sf	[4ccT	.	(8cccTL	sf	V2
16AAL	.	16AL	.	.	.	16dddL	.	.
16GGJJ)	.	16GJJ)	.	.	.	16eeeJJ)	.	.
=306	=306	=306	=306	=306	=306	=306	=306	=306
(8FFL	sf	(8FL	sf	2cc_	.	(8fffTL	sf	I
16EEL	.	16EL	.	.	.	16gggL	.	V6
16DDJJ)	.	16DJJ)	.	.	.	16aaaJJ)	.	.
(8CCL	sf	(8CL	sf	.	.	(8bbb-L	.	V7
16DDL	.	16DL	.	.	.	16aaaL	sf	.
16EEJJ)	.	16EJJ)	.	.	.	16gggJJ)	.	V6
=307	=307	=307	=307	=307	=307	=307	=307	=307
(8FFL	.	(8FL	.	4cc]	.	(8fffTL	.	I
16GGL	.	16GL	.	.	.	16eeeL	.	.
16AAJJ)	.	16AJJ)	.	.	.	16dddJJ)	.	.
(8BB-L	.	(8B-L	.	(8ccL	.	[4cccT	.	.
16AAL	.	16AL	.	16ddL	.	.	.	.
16GGJJ)	.	16GJJ)	.	16eeJJ)	.	.	.	.
=308	=308	=308	=308	=308	=308	=308	=308	=308
(8FFL	.	(8FL	.	(8ffL	.	4.ccc]	.	V2
16GGL	.	16GL	.	16eeL	.	.	.	.
16AAJJ)	.	16AJJ)	.	16ddJJ)	.	.	.	.
8BB-'L	.	8B-'L	.	8cc'L	.	.	.	.
8AA'J	.	8A'J	.	8cc#X'J	.	8ccc#X	.	V/vi
=309	=309	=309	=309	=309	=309	=309	=309	=309
!	!	!	!	!	!	!LO:TX:a:B:t=Adagio ma non troppo.	!	!
2BB-	ff	2B- 2f	ff	2dd	ff	2ddd	ff	IV
=310	=310	=310	=310	=310	=310	=310	=310	=310
[2F	p	[2f	p	(4bb-	p	((4ddd	p	I(64)
.	.	.	.	8aaL	.	8cccL	.	I
.	.	.	.	16cccL	.	16dddL	.	.
.	.	.	.	16ggJJ)	.	16eeeJJ))	.	.
=311	=311	=311	=311	=311	=311	=311	=311	=311
8FL]	.	(8fL]	.	(8aa'L	.	(8fff'L	.	.
(16fL	.	16aL	.	8ff'J)	.	8fff'J)	.	.
16dJJ	.	[16fJJ)	.	.	.	.	.	.
8BnL	.	(8fL]	.	(8dd'L	.	(8ggg'L	.	V65/V
8B-XJ	.	8eJ)	.	8dd'J)	.	8ggg'J)	.	ii%43/vi
=312	=312	=312	=312	=312	=312	=312	=312	=312
4A	.	4e	.	4cc#X	.	4aaa	.	V/vi
4G	.	4e	.	8r	.	8ccccL	.	V64
.	.	.	.	8dd	.	(16cccc'L	.	.
.	.	.	.	.	.	16bbb-'JJ)	.	.
=313	=313	=313	=313	=313	=313	=313	=313	=313
4A	.	4e	.	(4cc#X	.	(4aaa	.	V/vi
4G	.	(4e	.	[4ccn)	.	8.ccccL	.	V43
.	.	.	.	.	.	16bbb-Jk	.	.
=314	=314	=314	=314	=314	=314	=314	=314	=314
!LO:TX:b:i:t=sempre perendosi.	!	!LO:TX:b:i:t=sempre perendosi.	!	!LO:TX:b:i:t=sempre perendosi.	!	!LO:TX:b:i:t=sempre perendosi.	!	!
4F	.	4f	.	4cc]	.	4aaa)	.	I
4C	.	4e	.	(8.cccL	.	(4ggg	.	V7
.	.	.	.	16bb-Jk	.	.	.	.
=315	=315	=315	=315	=315	=315	=315	=315	=315
4F	.	4f)	.	4aa)	.	4aaa)	.	I
4C	.	(8.cL	.	(4e	.	(4gg	.	V7
.	.	16B-Jk	.	.	.	.	.	.
=316	=316	=316	=316	=316	=316	=316	=316	=316
4FF)	.	4A)	.	4f)	.	4aa	.	I
(8.CL	ppp	4c	ppp	4e	ppp	4g)	ppp	V2
16BB-Jk)	.	.	.	.	.	.	.	.
=317	=317	=317	=317	=317	=317	=317	=317	=317
[8AAL	.	[8cL	.	[8fL	.	[8aL	.	I6
16AAJk]	.	16cJk]	.	16fJk]	.	16aJk]	.	.
16r	.	16r	.	16r	.	16r	.	.
[8CL	.	[8B-L	.	[8eL	.	[8gL	.	V7
16CJk]	.	16B-Jk]	.	16eJk]	.	16gJk]	.	.
16r	.	16r	.	16r	.	16r	.	.
=318	=318	=318	=318	=318	=318	=318	=318	=318
[8FL	.	[8AL	.	[8cL	.	[8fL	.	I
16FJk]	.	16AJk]	.	16cJk]	.	16fJk]	.	.
16r	.	16r	.	16r	.	16r	.	.
[8EL	.	[8cL	.	8B-L [8e	.	[8gL	.	V65
16EJk]	.	16cJk]	.	16B-Jk 16e]	.	16gJk]	.	.
16r	.	16r	.	16r	.	16r	.	.
=319	=319	=319	=319	=319	=319	=319	=319	=319
!LO:TX:b:t=Sul C	!LO:DY:a	!	!LO:DY:a	!	!	!LO:TX:a:B:t=Presto	!	!
8FFL	ff ff	8FL	ff	8AL	.	8fL	ff	I
16AA'L	.	16fL	.	16aL	.	16ccL	.	.
16GG'JJ	.	16fJJ	.	16aJJ	.	16ccJJ	.	.
8FFL	.	8fL	.	8aL	.	8ccL	.	.
16AAL	.	16AL	.	16ccL	.	16ffL	.	.
16GGJJ	.	16AJJ	.	16ccJJ	.	16ffJJ	.	.
=320	=320	=320	=320	=320	=320	=320	=320	=320
8FFL	.	8AL	.	8ccL	.	8ffL	.	.
16AAL	.	16cL	.	16ffL	.	16aaL	.	.
16GGJJ	.	16cJJ	.	16ffJJ	.	16aaJJ	.	.
8FFL	.	8cL	.	8ffL	.	8aaL	.	.
16AAL	.	16fL	.	16aaL	.	16cccL	.	.
16GGJJ	.	16fJJ	.	16aaJJ	.	16cccJJ	.	.
=321	=321	=321	=321	=321	=321	=321	=321	=321
8FFL	.	8fL	.	8aaL	.	8cccL	.	.
16AAL	.	16aL	.	16cccL	.	16fffL	.	.
16GGJJ	.	16aJJ	.	16cccJJ	.	16fffJJ	.	.
8FFL	.	8aL	.	8cccL	.	8fffL	.	.
16AAL	.	16ccL	.	16fffL	.	16aaaL	.	.
16GGJJ	.	16ccJJ	.	16fffJJ	.	16aaaJJ	.	.
=322	=322	=322	=322	=322	=322	=322	=322	=322
8FFL	.	8ccL	.	8fffL	.	8aaaL	.	.
16AAL	.	16ffL	.	16aaaL	.	16ccccL	.	.
16GGJJ	.	16ffJJ	.	16aaaJJ	.	16ccccJJ	.	.
8FFL	.	8ffL	.	8aaaL	.	8ccccL	.	.
16AAL	.	16ffL	.	16aaaL	.	16ccccL	.	.
16GGJJ	.	16ffJJ	.	16aaaJJ	.	16ccccJJ	.	.
=323	=323	=323	=323	=323	=323	=323	=323	=323
8FF	.	8ff	.	8aaa	.	8fff	.	.
8r	.	8r	.	8r	.	8r	.	.
8C	.	8c	.	8g 8b- 8ee	.	8e 8cc 8gg	.	V7
8r	.	8r	.	8r	.	8r	.	.
=324	=324	=324	=324	=324	=324	=324	=324	=324
8F	.	8f	.	8f 8a 8ff	.	8f 8cc 8aa	.	I
8r	.	8r	.	8r	.	8r	.	.
8C	.	8C 8c	.	8G 8e	.	8g 8b- 8ee	.	V7
8r	.	8r	.	8r	.	8r	.	.
=325	=325	=325	=325	=325	=325	=325	=325	=325
4FF	.	4F	.	4A 4f	.	4f 4a 4ff	.	I
8.r	.	8.r	.	8.r	.	8.r	.	.
16F	.	16c 16f	.	16a 16ff	.	16cc 16aa	.	.
=326	=326	=326	=326	=326	=326	=326	=326	=326
4F	.	4c 4f	.	4a 4ff	.	4cc 4aa	.	.
8.r	.	8.r	.	8.r	.	8.r	.	.
16FF	.	16F	.	16c 16f	.	16A 16f	.	.
=327	=327	=327	=327	=327	=327	=327	=327	=327
4FF	.	4F	.	4c 4f	.	4A 4f	.	I\\
4r	.	4r	.	4r	.	4r	.	.
==	==	==	==	==	==	==	==	==
*-	*-	*-	*-	*-	*-	*-	*-	*-
!!!system-decoration: [(s1,s2,s3,s4)]
